;FLAVOR:Marlin
M117 Time Left 0h47m02s
;TIME:2822
;Filament used: 3.56991m
;Layer height: 0.28
;MINX:91.5
;MINY:81.5
;MINZ:0.285
;MAXX:143.5
;MAXY:153.5
;MAXZ:12.885
;POSTPROCESSED
;Generated with Cura_SteamEngine 4.7.1
M140 S70
M105
M190 S70
M104 S240
M105
M109 S240
M82 ;absolute extrusion mode
; Ender 3 Custom Start G-code
G92 E0 ; Reset Extruder
G28 ; Home all axes
G1 Z2.0 F3000 ; Move Z Axis up little to prevent scratching of Heat Bed
G1 X0.1 Y20 Z0.3 F5000.0 ; Move to start position
G1 X0.1 Y200.0 Z0.3 F1500.0 E15 ; Draw the first line
G1 X0.4 Y200.0 Z0.3 F5000.0 ; Move to side a little
G1 X0.4 Y20 Z0.3 F1500.0 E30 ; Draw the second line
G92 E0 ; Reset Extruder
G1 Z2.0 F3000 ; Move Z Axis up little to prevent scratching of Heat Bed
G1 X5 Y20 Z0.3 F5000.0 ; Move over to prevent blob squish
G92 E0
G92 E0
G1 F2700 E-6
;LAYER_COUNT:46
;LAYER:0
M107
M204 S500
M205 X8 Y8
G0 F7500 X94.066 Y85.458 Z0.285
;TYPE:SKIRT
G1 F2700 E0
G1 F1500 X94.698 Y84.764 E0.04226
G1 X95.386 Y84.127 E0.08448
G1 X96.126 Y83.551 E0.1267
G1 X96.912 Y83.039 E0.16894
G1 X97.739 Y82.597 E0.21116
G1 X98.601 Y82.227 E0.2534
G1 X99.491 Y81.931 E0.29563
G1 X100.403 Y81.713 E0.33785
G1 X101.33 Y81.572 E0.38007
G1 X102.201 Y81.513 E0.41938
G1 X102.522 Y81.504 E0.43383
G1 X102.83 Y81.5 E0.4477
G1 X131.951 Y81.501 E1.7589
G1 X132.649 Y81.511 E1.79033
G1 X133.585 Y81.565 E1.83255
G1 X134.513 Y81.697 E1.87475
G1 X135.427 Y81.909 E1.917
G1 X136.319 Y82.198 E1.95922
G1 X137.184 Y82.561 E2.00146
G1 X138.014 Y82.997 E2.04367
G1 X138.805 Y83.502 E2.08593
G1 X139.549 Y84.073 E2.12815
G1 X140.242 Y84.705 E2.17038
G1 X140.879 Y85.393 E2.2126
G1 X141.454 Y86.134 E2.25483
G1 X141.965 Y86.92 E2.29704
G1 X142.407 Y87.748 E2.3393
G1 X142.776 Y88.61 E2.38152
G1 X143.071 Y89.5 E2.42374
G1 X143.289 Y90.412 E2.46596
G1 X143.429 Y91.34 E2.50822
G1 X143.487 Y92.201 E2.54707
G1 X143.496 Y92.521 E2.56149
G1 X143.5 Y92.83 E2.5754
G1 X143.499 Y141.9 E4.78482
G1 X143.49 Y142.627 E4.81756
G1 X143.439 Y143.564 E4.85981
G1 X143.307 Y144.492 E4.90201
G1 X143.098 Y145.406 E4.94423
G1 X142.811 Y146.299 E4.98646
G1 X142.449 Y147.165 E5.02873
G1 X142.015 Y147.996 E5.07094
G1 X141.511 Y148.787 E5.11317
G1 X140.942 Y149.532 E5.15538
G1 X140.311 Y150.227 E5.19764
G1 X139.624 Y150.865 E5.23986
G1 X138.885 Y151.442 E5.28207
G1 X138.099 Y151.954 E5.32431
G1 X137.273 Y152.397 E5.36651
G1 X136.411 Y152.769 E5.40879
G1 X135.522 Y153.065 E5.45097
G1 X134.61 Y153.285 E5.49322
G1 X133.683 Y153.426 E5.53543
G1 X132.799 Y153.487 E5.57533
G1 X132.478 Y153.496 E5.58979
G1 X132.17 Y153.5 E5.60366
G1 X103.065 Y153.499 E6.91414
G1 X102.367 Y153.49 E6.94557
G1 X101.431 Y153.438 E6.98778
G1 X100.502 Y153.306 E7.03003
G1 X99.588 Y153.096 E7.07225
G1 X98.695 Y152.809 E7.11449
G1 X97.83 Y152.446 E7.15673
G1 X96.999 Y152.012 E7.19894
G1 X96.208 Y151.508 E7.24117
G1 X95.463 Y150.938 E7.28341
G1 X94.769 Y150.307 E7.32564
G1 X94.132 Y149.62 E7.36782
G1 X93.555 Y148.88 E7.41007
G1 X93.043 Y148.094 E7.45231
G1 X92.6 Y147.267 E7.49455
G1 X92.229 Y146.406 E7.53676
G1 X91.933 Y145.516 E7.579
G1 X91.714 Y144.604 E7.62123
G1 X91.573 Y143.677 E7.66345
G1 X91.513 Y142.788 E7.70357
G1 X91.504 Y142.455 E7.71856
G1 X91.5 Y142.158 E7.73194
G1 X91.501 Y93.025 E9.9442
G1 X91.51 Y92.36 E9.97414
G1 X91.563 Y91.424 E10.01635
G1 X91.695 Y90.495 E10.0586
G1 X91.906 Y89.581 E10.10084
G1 X92.194 Y88.689 E10.14304
G1 X92.557 Y87.824 E10.18528
G1 X92.992 Y86.993 E10.22751
G1 X93.496 Y86.203 E10.26971
G1 X94.066 Y85.458 E10.31194
G0 F7500 X94.461 Y85.611
G1 F1500 X95.089 Y84.939 E10.35336
G1 X95.774 Y84.323 E10.39484
G1 X96.51 Y83.77 E10.43629
G1 X97.291 Y83.282 E10.47775
G1 X98.111 Y82.864 E10.51919
G1 X98.965 Y82.519 E10.56066
G1 X99.845 Y82.249 E10.60211
G1 X100.745 Y82.057 E10.64355
G1 X101.659 Y81.943 E10.68502
G1 X102.212 Y81.913 E10.70995
G1 X102.533 Y81.904 E10.72441
G1 X102.83 Y81.9 E10.73779
G1 X131.793 Y81.9 E12.04187
G1 X132.643 Y81.911 E12.08015
G1 X133.562 Y81.964 E12.1216
G1 X134.473 Y82.097 E12.16305
G1 X135.369 Y82.308 E12.2045
G1 X136.243 Y82.596 E12.24593
G1 X137.09 Y82.959 E12.28742
G1 X137.901 Y83.394 E12.32886
G1 X138.671 Y83.898 E12.3703
G1 X139.395 Y84.467 E12.41176
G1 X140.067 Y85.097 E12.45323
G1 X140.682 Y85.782 E12.49468
G1 X141.235 Y86.518 E12.53613
G1 X141.722 Y87.299 E12.57757
G1 X142.139 Y88.12 E12.61903
G1 X142.484 Y88.974 E12.66051
G1 X142.753 Y89.854 E12.70194
G1 X142.945 Y90.755 E12.74342
G1 X143.058 Y91.668 E12.78484
G1 X143.087 Y92.212 E12.80937
G1 X143.096 Y92.532 E12.82378
G1 X143.1 Y92.83 E12.8372
G1 X143.099 Y141.895 E15.0464
G1 X143.09 Y142.622 E15.07913
G1 X143.039 Y143.541 E15.12058
G1 X142.908 Y144.453 E15.16206
G1 X142.698 Y145.349 E15.2035
G1 X142.412 Y146.224 E15.24495
G1 X142.051 Y147.071 E15.2864
G1 X141.617 Y147.883 E15.32786
G1 X141.115 Y148.655 E15.36932
G1 X140.547 Y149.38 E15.41079
G1 X139.919 Y150.053 E15.45224
G1 X139.235 Y150.669 E15.49368
G1 X138.5 Y151.223 E15.53513
G1 X137.72 Y151.712 E15.57658
G1 X136.9 Y152.131 E15.61804
G1 X136.047 Y152.477 E15.65949
G1 X135.167 Y152.748 E15.70094
G1 X134.267 Y152.941 E15.74239
G1 X133.353 Y153.056 E15.78387
G1 X132.788 Y153.087 E15.80934
G1 X132.467 Y153.096 E15.8238
G1 X132.17 Y153.1 E15.83718
G1 X103.07 Y153.099 E17.14743
G1 X102.372 Y153.09 E17.17886
G1 X101.453 Y153.038 E17.22031
G1 X100.542 Y152.907 E17.26175
G1 X99.646 Y152.697 E17.30318
G1 X98.771 Y152.41 E17.34465
G1 X97.924 Y152.048 E17.38612
G1 X97.112 Y151.614 E17.42758
G1 X96.341 Y151.112 E17.469
G1 X95.616 Y150.544 E17.51047
G1 X94.943 Y149.915 E17.55195
G1 X94.328 Y149.231 E17.59336
G1 X93.774 Y148.496 E17.63481
G1 X93.286 Y147.715 E17.67627
G1 X92.867 Y146.895 E17.71773
G1 X92.521 Y146.042 E17.75918
G1 X92.251 Y145.162 E17.80063
G1 X92.058 Y144.261 E17.84211
G1 X91.944 Y143.348 E17.88354
G1 X91.913 Y142.777 E17.90929
G1 X91.904 Y142.444 E17.92429
G1 X91.9 Y142.158 E17.93717
G1 X91.901 Y93.031 E20.14916
G1 X91.91 Y92.366 E20.1791
G1 X91.962 Y91.446 E20.22059
G1 X92.094 Y90.535 E20.26204
G1 X92.305 Y89.639 E20.30348
G1 X92.592 Y88.764 E20.34495
G1 X92.955 Y87.918 E20.3864
G1 X93.389 Y87.106 E20.42785
G1 X93.892 Y86.335 E20.4693
G1 X94.461 Y85.611 E20.51076
G0 F7500 X94.855 Y85.767
G1 F1500 X95.481 Y85.117 E20.5514
G1 X96.162 Y84.524 E20.59205
G1 X96.894 Y83.994 E20.63275
G1 X97.669 Y83.531 E20.67339
G1 X98.482 Y83.138 E20.71405
G1 X99.327 Y82.818 E20.75474
G1 X100.196 Y82.575 E20.79536
G1 X101.084 Y82.409 E20.83604
G1 X102.223 Y82.313 E20.88751
G1 X102.544 Y82.304 E20.90197
G1 X102.83 Y82.3 E20.91484
G1 X131.793 Y82.3 E22.21893
G1 X132.637 Y82.311 E22.25693
G1 X133.539 Y82.364 E22.29762
G1 X134.432 Y82.496 E22.33826
G1 X135.31 Y82.707 E22.37892
G1 X136.166 Y82.995 E22.41959
G1 X136.993 Y83.357 E22.46023
G1 X137.785 Y83.792 E22.50092
G1 X138.536 Y84.294 E22.54159
G1 X139.239 Y84.861 E22.58226
G1 X139.889 Y85.488 E22.62292
G1 X140.481 Y86.17 E22.66359
G1 X141.011 Y86.901 E22.70424
G1 X141.473 Y87.677 E22.7449
G1 X141.866 Y88.49 E22.78556
G1 X142.184 Y89.335 E22.82621
G1 X142.427 Y90.205 E22.86689
G1 X142.592 Y91.093 E22.90755
G1 X142.687 Y92.223 E22.95861
G1 X142.696 Y92.543 E22.97303
G1 X142.7 Y92.83 E22.98595
G1 X142.699 Y141.89 E25.19492
G1 X142.69 Y142.617 E25.22766
G1 X142.639 Y143.519 E25.26834
G1 X142.508 Y144.413 E25.30902
G1 X142.299 Y145.291 E25.34966
G1 X142.013 Y146.148 E25.39033
G1 X141.652 Y146.976 E25.43101
G1 X141.22 Y147.768 E25.47163
G1 X140.719 Y148.52 E25.51231
G1 X140.153 Y149.224 E25.55298
G1 X139.528 Y149.875 E25.59362
G1 X138.847 Y150.469 E25.63431
G1 X138.116 Y151 E25.67499
G1 X137.342 Y151.464 E25.71562
G1 X136.529 Y151.858 E25.7563
G1 X135.685 Y152.178 E25.79694
G1 X134.815 Y152.423 E25.83764
G1 X133.928 Y152.589 E25.87827
G1 X132.777 Y152.687 E25.93028
G1 X132.456 Y152.696 E25.94474
G1 X132.17 Y152.7 E25.95762
G1 X103.075 Y152.699 E27.26765
G1 X102.377 Y152.69 E27.29908
G1 X101.476 Y152.639 E27.33971
G1 X100.582 Y152.507 E27.3804
G1 X99.704 Y152.298 E27.42104
G1 X98.847 Y152.011 E27.46173
G1 X98.02 Y151.65 E27.50236
G1 X97.227 Y151.217 E27.54304
G1 X96.476 Y150.716 E27.58369
G1 X95.772 Y150.15 E27.62436
G1 X95.121 Y149.524 E27.66503
G1 X94.528 Y148.843 E27.70569
G1 X93.998 Y148.112 E27.74634
G1 X93.534 Y147.337 E27.78701
G1 X93.14 Y146.524 E27.82769
G1 X92.82 Y145.68 E27.86833
G1 X92.576 Y144.81 E27.90902
G1 X92.41 Y143.922 E27.94969
G1 X92.313 Y142.767 E28.00188
G1 X92.304 Y142.434 E28.01688
G1 X92.3 Y142.158 E28.02931
G1 X92.301 Y93.036 E30.24107
G1 X92.31 Y92.371 E30.27101
G1 X92.362 Y91.469 E30.31169
G1 X92.494 Y90.576 E30.35234
G1 X92.704 Y89.698 E30.39299
G1 X92.991 Y88.841 E30.43368
G1 X93.353 Y88.014 E30.47433
G1 X93.786 Y87.222 E30.51497
G1 X94.288 Y86.471 E30.55564
G1 X94.855 Y85.767 E30.59634
G1 F2700 E24.59634
;MESH:sop_cajon_4_3_2.stl
G0 F7500 X118.753 Y127.665
G0 X117.907 Y126.012
G0 X118.062 Y126.143
;TYPE:WALL-INNER
G1 F2700 E30.59634
G1 F1800 X117.792 Y126.297 E30.61034
G1 X117.161 Y126.82 E30.64724
G1 X116.958 Y127.058 E30.66133
G1 X116.56 Y127.747 E30.69715
G1 X116.45 Y128.031 E30.71087
G1 X116.307 Y128.803 E30.74622
G1 X116.306 Y129.111 E30.76009
G1 X116.439 Y129.932 E30.79753
G1 X116.553 Y130.242 E30.81241
G1 X116.992 Y130.981 E30.85111
G1 X117.199 Y131.225 E30.86552
G1 X117.796 Y131.702 E30.89992
G1 X118.054 Y131.854 E30.91341
G1 X118.802 Y132.12 E30.94915
G1 X119.095 Y132.173 E30.96256
G1 X119.875 Y132.178 E30.99768
G1 X120.168 Y132.124 E31.01109
G1 X120.922 Y131.869 E31.04693
G1 X121.197 Y131.704 E31.06137
G1 X121.863 Y131.16 E31.10009
G1 X122.071 Y130.896 E31.11522
G1 X122.419 Y130.286 E31.14685
G1 X122.551 Y129.982 E31.16177
G1 X122.669 Y129.291 E31.19333
G1 X122.703 Y129.043 E31.2046
G1 X122.713 Y128.978 E31.20756
G1 X122.564 Y128.177 E31.24425
G1 X122.526 Y127.933 E31.25537
G1 X122.4 Y127.666 E31.26866
G1 X122.04 Y127.054 E31.30063
G1 X121.852 Y126.833 E31.31369
G1 X121.278 Y126.343 E31.34767
G1 X121.022 Y126.187 E31.36117
G1 X120.294 Y125.902 E31.39637
G1 X119.995 Y125.841 E31.41011
G1 X119.142 Y125.821 E31.44853
G1 X118.828 Y125.874 E31.46287
G1 X118.062 Y126.143 E31.49942
G0 F7500 X118.229 Y126.508
G1 F1800 X118.021 Y126.627 E31.51021
G1 X117.443 Y127.106 E31.54401
G1 X117.286 Y127.29 E31.55491
G1 X116.922 Y127.92 E31.58767
G1 X116.837 Y128.14 E31.59829
G1 X116.707 Y128.841 E31.63039
G1 X116.706 Y129.08 E31.64115
G1 X116.828 Y129.83 E31.67536
G1 X116.916 Y130.069 E31.68683
G1 X117.319 Y130.748 E31.72238
G1 X117.479 Y130.937 E31.73353
G1 X118.024 Y131.372 E31.76493
G1 X118.224 Y131.49 E31.77538
G1 X118.905 Y131.732 E31.80792
G1 X119.132 Y131.773 E31.81831
G1 X119.84 Y131.778 E31.85019
G1 X120.067 Y131.736 E31.86058
G1 X120.753 Y131.504 E31.89319
G1 X120.966 Y131.376 E31.90438
G1 X121.576 Y130.878 E31.93984
G1 X121.738 Y130.672 E31.95164
G1 X122.061 Y130.107 E31.98094
G1 X122.165 Y129.867 E31.99272
G1 X122.274 Y129.229 E32.02186
G1 X122.308 Y128.987 E32.03286
G1 X122.171 Y128.25 E32.06662
G1 X122.17 Y128.239 E32.06711
G1 X122.14 Y128.052 E32.07564
G1 X122.046 Y127.853 E32.08555
G1 X121.713 Y127.287 E32.11512
G1 X121.568 Y127.117 E32.12518
G1 X121.043 Y126.668 E32.15628
G1 X120.844 Y126.547 E32.16677
G1 X120.18 Y126.287 E32.19888
G1 X119.95 Y126.24 E32.20945
G1 X119.171 Y126.222 E32.24453
G1 X118.928 Y126.263 E32.25563
G1 X118.229 Y126.508 E32.28898
G0 F7500 X118.395 Y126.874
;TYPE:WALL-OUTER
G1 F1800 X118.249 Y126.957 E32.29616
G1 X117.725 Y127.392 E32.32529
G1 X117.614 Y127.522 E32.3326
G1 X117.284 Y128.093 E32.36081
G1 X117.224 Y128.249 E32.36796
G1 X117.107 Y128.879 E32.39537
G1 X117.106 Y129.049 E32.40264
G1 X117.217 Y129.728 E32.43207
G1 X117.279 Y129.896 E32.43973
G1 X117.646 Y130.515 E32.47051
G1 X117.759 Y130.649 E32.47801
G1 X118.251 Y131.042 E32.50495
G1 X118.394 Y131.126 E32.51204
G1 X119.008 Y131.344 E32.53991
G1 X119.169 Y131.373 E32.54691
G1 X119.805 Y131.378 E32.57411
G1 X119.966 Y131.348 E32.58112
G1 X120.584 Y131.139 E32.60902
G1 X120.735 Y131.048 E32.61657
G1 X121.289 Y130.596 E32.64715
G1 X121.406 Y130.448 E32.65522
G1 X121.703 Y129.928 E32.68083
G1 X121.779 Y129.752 E32.68903
G1 X121.879 Y129.167 E32.71442
G1 X121.903 Y128.996 E32.72181
G1 X121.778 Y128.323 E32.75109
G1 X121.754 Y128.171 E32.75767
G1 X121.692 Y128.04 E32.76387
G1 X121.386 Y127.52 E32.78968
G1 X121.284 Y127.401 E32.79638
G1 X120.807 Y126.993 E32.82323
G1 X120.666 Y126.907 E32.83029
G1 X120.066 Y126.672 E32.85786
G1 X119.905 Y126.639 E32.86489
G1 X119.2 Y126.623 E32.89505
G1 X119.028 Y126.652 E32.90251
G1 X118.395 Y126.874 E32.93121
G0 F7500 X118.249 Y126.957
G0 X118.07 Y127.105
G0 X117.79 Y126.767
G1 F2700 E26.93121
G0 F7500 X118.779 Y125.689
G0 X119.248 Y127.491
G0 X118.743 Y107.328
G0 X117.656 Y108.842
G0 X116.999 Y106.832
G0 X116.893 Y106.131
G0 X117.041 Y103.963
;TYPE:WALL-INNER
G1 F2700 E32.93121
G1 F1800 X116.851 Y104.202 E32.94495
G1 X116.504 Y104.887 E32.97953
G1 X116.41 Y105.167 E32.99283
G1 X116.306 Y105.93 E33.0275
G1 X116.308 Y106.223 E33.04069
G1 X116.458 Y106.987 E33.07575
G1 X116.564 Y107.265 E33.08914
G1 X116.956 Y107.937 E33.12417
G1 X117.15 Y108.168 E33.13776
G1 X117.766 Y108.686 E33.17399
G1 X118.03 Y108.84 E33.18776
G1 X118.779 Y109.116 E33.2237
G1 X119.086 Y109.17 E33.23773
G1 X119.924 Y109.171 E33.27546
G1 X120.237 Y109.112 E33.28981
G1 X120.988 Y108.833 E33.32588
G1 X121.251 Y108.674 E33.33972
G1 X121.852 Y108.172 E33.37497
G1 X122.047 Y107.929 E33.389
G1 X122.393 Y107.354 E33.41922
G1 X122.528 Y107.048 E33.43428
G1 X122.667 Y106.304 E33.46836
G1 X122.712 Y105.987 E33.48277
G1 X122.586 Y105.232 E33.51724
G1 X122.515 Y104.9 E33.53252
G1 X122.064 Y104.104 E33.57372
G1 X121.859 Y103.833 E33.58902
G1 X121.128 Y103.255 E33.63098
G1 X120.833 Y103.088 E33.64624
G1 X120.024 Y102.85 E33.68421
G1 X119.711 Y102.805 E33.69845
G1 X118.897 Y102.862 E33.73519
G1 X118.596 Y102.929 E33.74907
G1 X117.884 Y103.241 E33.78408
G1 X117.625 Y103.408 E33.79795
G1 X117.041 Y103.963 E33.83423
G0 F7500 X117.337 Y104.233
G1 F1800 X117.19 Y104.419 E33.8449
G1 X116.874 Y105.042 E33.87635
G1 X116.801 Y105.259 E33.88666
G1 X116.706 Y105.955 E33.91829
G1 X116.708 Y106.182 E33.92851
G1 X116.844 Y106.877 E33.9604
G1 X116.926 Y107.092 E33.97076
G1 X117.284 Y107.706 E34.00276
G1 X117.434 Y107.884 E34.01324
G1 X117.997 Y108.358 E34.04638
G1 X118.201 Y108.477 E34.05701
G1 X118.884 Y108.728 E34.08978
G1 X119.121 Y108.77 E34.10062
G1 X119.887 Y108.771 E34.13511
G1 X120.129 Y108.725 E34.1462
G1 X120.813 Y108.471 E34.17905
G1 X121.018 Y108.347 E34.18984
G1 X121.565 Y107.891 E34.2219
G1 X121.718 Y107.7 E34.23292
G1 X122.037 Y107.169 E34.26081
G1 X122.143 Y106.929 E34.27263
G1 X122.272 Y106.239 E34.30423
G1 X122.307 Y105.992 E34.31546
G1 X122.193 Y105.307 E34.34673
G1 X122.137 Y105.044 E34.35884
G1 X121.729 Y104.324 E34.3961
G1 X121.571 Y104.115 E34.4079
G1 X120.904 Y103.588 E34.44617
G1 X120.676 Y103.459 E34.45797
G1 X119.939 Y103.242 E34.49256
G1 X119.696 Y103.207 E34.50361
G1 X118.955 Y103.259 E34.53706
G1 X118.721 Y103.311 E34.54785
G1 X118.074 Y103.595 E34.57967
G1 X117.873 Y103.724 E34.59042
G1 X117.337 Y104.233 E34.6237
G0 F7500 X117.633 Y104.503
;TYPE:WALL-OUTER
G1 F1800 X117.529 Y104.635 E34.63089
G1 X117.244 Y105.197 E34.65785
G1 X117.192 Y105.351 E34.6648
G1 X117.106 Y105.98 E34.69195
G1 X117.108 Y106.141 E34.69884
G1 X117.23 Y106.767 E34.72612
G1 X117.288 Y106.919 E34.73308
G1 X117.613 Y107.475 E34.76063
G1 X117.718 Y107.601 E34.76764
G1 X118.229 Y108.03 E34.79618
G1 X118.372 Y108.114 E34.80328
G1 X118.989 Y108.34 E34.83138
G1 X119.157 Y108.37 E34.83868
G1 X119.849 Y108.371 E34.86828
G1 X120.021 Y108.338 E34.87578
G1 X120.638 Y108.109 E34.90393
G1 X120.785 Y108.02 E34.91128
G1 X121.278 Y107.609 E34.93873
G1 X121.389 Y107.471 E34.94631
G1 X121.681 Y106.985 E34.97056
G1 X121.758 Y106.81 E34.97874
G1 X121.877 Y106.174 E35.00641
G1 X121.902 Y105.997 E35.01406
G1 X121.8 Y105.381 E35.04077
G1 X121.759 Y105.188 E35.04921
G1 X121.394 Y104.544 E35.08087
G1 X121.283 Y104.397 E35.08875
G1 X120.68 Y103.921 E35.12161
G1 X120.519 Y103.83 E35.12952
G1 X119.853 Y103.634 E35.15922
G1 X119.681 Y103.609 E35.16665
G1 X119.013 Y103.656 E35.1953
G1 X118.846 Y103.693 E35.20261
G1 X118.263 Y103.949 E35.22985
G1 X118.121 Y104.04 E35.23706
