;FLAVOR:Marlin
M117 Time Left 0h30m13s
;TIME:1813
;Filament used: 2.30801m
;Layer height: 0.28
;MINX:91.5
;MINY:93.25
;MINZ:0.285
;MAXX:143.5
;MAXY:141.75
;MAXZ:12.885
;POSTPROCESSED
;Generated with Cura_SteamEngine 4.7.1
M140 S70
M105
M190 S70
M104 S240
M105
M109 S240
M82 ;absolute extrusion mode
; Ender 3 Custom Start G-code
G92 E0 ; Reset Extruder
G28 ; Home all axes
G1 Z2.0 F3000 ; Move Z Axis up little to prevent scratching of Heat Bed
G1 X0.1 Y20 Z0.3 F5000.0 ; Move to start position
G1 X0.1 Y200.0 Z0.3 F1500.0 E15 ; Draw the first line
G1 X0.4 Y200.0 Z0.3 F5000.0 ; Move to side a little
G1 X0.4 Y20 Z0.3 F1500.0 E30 ; Draw the second line
G92 E0 ; Reset Extruder
G1 Z2.0 F3000 ; Move Z Axis up little to prevent scratching of Heat Bed
G1 X5 Y20 Z0.3 F5000.0 ; Move over to prevent blob squish
G92 E0
G92 E0
G1 F2700 E-6
;LAYER_COUNT:46
;LAYER:0
M107
M204 S500
M205 X8 Y8
G0 F7500 X94.698 Y96.514 Z0.285
;TYPE:SKIRT
G1 F2700 E0
G1 F1500 X95.386 Y95.877 E0.04222
G1 X96.126 Y95.301 E0.08444
G1 X96.912 Y94.789 E0.12668
G1 X97.739 Y94.347 E0.1689
G1 X98.601 Y93.977 E0.21113
G1 X99.491 Y93.681 E0.25337
G1 X100.403 Y93.463 E0.29559
G1 X101.33 Y93.322 E0.3378
G1 X102.201 Y93.263 E0.37711
G1 X102.522 Y93.254 E0.39157
G1 X102.83 Y93.25 E0.40544
G1 X131.951 Y93.251 E1.71664
G1 X132.649 Y93.261 E1.74807
G1 X133.585 Y93.315 E1.79029
G1 X134.513 Y93.447 E1.83249
G1 X135.427 Y93.659 E1.87474
G1 X136.319 Y93.948 E1.91695
G1 X137.184 Y94.311 E1.95919
G1 X138.014 Y94.747 E2.00141
G1 X138.805 Y95.252 E2.04366
G1 X139.549 Y95.823 E2.08589
G1 X140.242 Y96.455 E2.12812
G1 X140.879 Y97.143 E2.17034
G1 X141.454 Y97.884 E2.21257
G1 X141.965 Y98.67 E2.25478
G1 X142.407 Y99.498 E2.29704
G1 X142.776 Y100.36 E2.33926
G1 X143.071 Y101.25 E2.38148
G1 X143.289 Y102.162 E2.4237
G1 X143.429 Y103.09 E2.46595
G1 X143.487 Y103.951 E2.50481
G1 X143.496 Y104.271 E2.51922
G1 X143.5 Y104.58 E2.53314
G1 X143.499 Y130.15 E3.68445
G1 X143.49 Y130.877 E3.71719
G1 X143.439 Y131.814 E3.75944
G1 X143.307 Y132.742 E3.80164
G1 X143.098 Y133.656 E3.84386
G1 X142.811 Y134.549 E3.88609
G1 X142.449 Y135.415 E3.92835
G1 X142.015 Y136.246 E3.97057
G1 X141.511 Y137.037 E4.0128
G1 X140.942 Y137.782 E4.05501
G1 X140.311 Y138.477 E4.09727
G1 X139.624 Y139.115 E4.13949
G1 X138.885 Y139.692 E4.1817
G1 X138.099 Y140.204 E4.22394
G1 X137.273 Y140.647 E4.26614
G1 X136.411 Y141.019 E4.30841
G1 X135.522 Y141.315 E4.3506
G1 X134.61 Y141.535 E4.39284
G1 X133.683 Y141.676 E4.43506
G1 X132.799 Y141.737 E4.47496
G1 X132.478 Y141.746 E4.48942
G1 X132.17 Y141.75 E4.50329
G1 X103.065 Y141.749 E5.81377
G1 X102.367 Y141.74 E5.8452
G1 X101.431 Y141.688 E5.88741
G1 X100.502 Y141.556 E5.92966
G1 X99.588 Y141.346 E5.97188
G1 X98.695 Y141.059 E6.01412
G1 X97.83 Y140.696 E6.05635
G1 X96.999 Y140.262 E6.09857
G1 X96.208 Y139.758 E6.1408
G1 X95.463 Y139.188 E6.18303
G1 X94.769 Y138.557 E6.22527
G1 X94.132 Y137.87 E6.26745
G1 X93.555 Y137.13 E6.3097
G1 X93.043 Y136.344 E6.35194
G1 X92.6 Y135.517 E6.39418
G1 X92.229 Y134.656 E6.43639
G1 X91.933 Y133.766 E6.47862
G1 X91.714 Y132.854 E6.52085
G1 X91.573 Y131.927 E6.56307
G1 X91.513 Y131.038 E6.60319
G1 X91.504 Y130.705 E6.61819
G1 X91.5 Y130.408 E6.63157
G1 X91.501 Y104.775 E7.78571
G1 X91.51 Y104.11 E7.81566
G1 X91.563 Y103.174 E7.85787
G1 X91.695 Y102.245 E7.90012
G1 X91.906 Y101.331 E7.94236
G1 X92.194 Y100.439 E7.98456
G1 X92.557 Y99.574 E8.0268
G1 X92.992 Y98.743 E8.06903
G1 X93.496 Y97.953 E8.11123
G1 X94.066 Y97.208 E8.15346
G1 X94.698 Y96.514 E8.19572
G0 F7500 X95.089 Y96.689
G1 F1500 X95.774 Y96.073 E8.2372
G1 X96.51 Y95.52 E8.27866
G1 X97.291 Y95.032 E8.32012
G1 X98.111 Y94.614 E8.36156
G1 X98.965 Y94.269 E8.40303
G1 X99.845 Y93.999 E8.44448
G1 X100.745 Y93.807 E8.48591
G1 X101.659 Y93.693 E8.52739
G1 X102.212 Y93.663 E8.55232
G1 X102.533 Y93.654 E8.56678
G1 X102.83 Y93.65 E8.58016
G1 X131.793 Y93.65 E9.88424
G1 X132.643 Y93.661 E9.92252
G1 X133.562 Y93.714 E9.96396
G1 X134.473 Y93.847 E10.00542
G1 X135.369 Y94.058 E10.04686
G1 X136.243 Y94.346 E10.0883
G1 X137.09 Y94.709 E10.12979
G1 X137.901 Y95.144 E10.17123
G1 X138.671 Y95.648 E10.21266
G1 X139.395 Y96.217 E10.25413
G1 X140.067 Y96.847 E10.2956
G1 X140.682 Y97.532 E10.33705
G1 X141.235 Y98.268 E10.3785
G1 X141.722 Y99.049 E10.41994
G1 X142.139 Y99.87 E10.4614
G1 X142.484 Y100.724 E10.50287
G1 X142.753 Y101.604 E10.54431
G1 X142.945 Y102.505 E10.58579
G1 X143.058 Y103.418 E10.62721
G1 X143.087 Y103.962 E10.65174
G1 X143.096 Y104.282 E10.66615
G1 X143.1 Y104.58 E10.67957
G1 X143.099 Y130.145 E11.83066
G1 X143.09 Y130.872 E11.86339
G1 X143.039 Y131.791 E11.90484
G1 X142.908 Y132.703 E11.94632
G1 X142.698 Y133.599 E11.98776
G1 X142.412 Y134.474 E12.02921
G1 X142.051 Y135.321 E12.07066
G1 X141.617 Y136.133 E12.11212
G1 X141.115 Y136.905 E12.15358
G1 X140.547 Y137.63 E12.19505
G1 X139.919 Y138.303 E12.2365
G1 X139.235 Y138.919 E12.27794
G1 X138.5 Y139.473 E12.31939
G1 X137.72 Y139.962 E12.36084
G1 X136.9 Y140.381 E12.4023
G1 X136.047 Y140.727 E12.44375
G1 X135.167 Y140.998 E12.4852
G1 X134.267 Y141.191 E12.52665
G1 X133.353 Y141.306 E12.56813
G1 X132.788 Y141.337 E12.59361
G1 X132.467 Y141.346 E12.60806
G1 X132.17 Y141.35 E12.62144
G1 X103.07 Y141.349 E13.93169
G1 X102.372 Y141.34 E13.96312
G1 X101.453 Y141.288 E14.00457
G1 X100.542 Y141.157 E14.04601
G1 X99.646 Y140.947 E14.08744
G1 X98.771 Y140.66 E14.12891
G1 X97.924 Y140.298 E14.17038
G1 X97.112 Y139.864 E14.21184
G1 X96.341 Y139.362 E14.25326
G1 X95.616 Y138.794 E14.29473
G1 X94.943 Y138.165 E14.33621
G1 X94.328 Y137.481 E14.37762
G1 X93.774 Y136.746 E14.41907
G1 X93.286 Y135.965 E14.46053
G1 X92.867 Y135.145 E14.50199
G1 X92.521 Y134.292 E14.54344
G1 X92.251 Y133.412 E14.58489
G1 X92.058 Y132.511 E14.62637
G1 X91.944 Y131.598 E14.6678
G1 X91.913 Y131.027 E14.69355
G1 X91.904 Y130.694 E14.70855
G1 X91.9 Y130.408 E14.72143
G1 X91.901 Y104.781 E15.87531
G1 X91.91 Y104.116 E15.90525
G1 X91.962 Y103.196 E15.94674
G1 X92.094 Y102.285 E15.98819
G1 X92.305 Y101.389 E16.02964
G1 X92.592 Y100.514 E16.0711
G1 X92.955 Y99.668 E16.11255
G1 X93.389 Y98.856 E16.154
G1 X93.892 Y98.085 E16.19545
G1 X94.461 Y97.361 E16.23692
G1 X95.089 Y96.689 E16.27833
G0 F7500 X95.481 Y96.867
G1 F1500 X96.162 Y96.274 E16.31899
G1 X96.894 Y95.744 E16.35968
G1 X97.669 Y95.281 E16.40033
G1 X98.482 Y94.888 E16.44098
G1 X99.327 Y94.568 E16.48167
G1 X100.196 Y94.325 E16.5223
G1 X101.084 Y94.159 E16.56297
G1 X102.223 Y94.063 E16.61444
G1 X102.544 Y94.054 E16.6289
G1 X102.83 Y94.05 E16.64178
G1 X131.793 Y94.05 E17.94586
G1 X132.637 Y94.061 E17.98387
G1 X133.539 Y94.114 E18.02455
G1 X134.432 Y94.246 E18.0652
G1 X135.31 Y94.457 E18.10585
G1 X136.166 Y94.745 E18.14652
G1 X136.993 Y95.107 E18.18717
G1 X137.785 Y95.542 E18.22785
G1 X138.536 Y96.044 E18.26852
G1 X139.239 Y96.611 E18.30919
G1 X139.889 Y97.238 E18.34985
G1 X140.481 Y97.92 E18.39052
G1 X141.011 Y98.651 E18.43117
G1 X141.473 Y99.427 E18.47184
G1 X141.866 Y100.24 E18.51249
G1 X142.184 Y101.085 E18.55315
G1 X142.427 Y101.955 E18.59382
G1 X142.592 Y102.843 E18.63449
G1 X142.687 Y103.973 E18.68554
G1 X142.696 Y104.293 E18.69996
G1 X142.7 Y104.58 E18.71288
G1 X142.699 Y130.14 E19.86374
G1 X142.69 Y130.867 E19.89648
G1 X142.639 Y131.769 E19.93716
G1 X142.508 Y132.663 E19.97784
G1 X142.299 Y133.541 E20.01848
G1 X142.013 Y134.398 E20.05916
G1 X141.652 Y135.226 E20.09983
G1 X141.22 Y136.018 E20.14045
G1 X140.719 Y136.77 E20.18114
G1 X140.153 Y137.474 E20.22181
G1 X139.528 Y138.125 E20.26244
G1 X138.847 Y138.719 E20.30313
G1 X138.116 Y139.25 E20.34381
G1 X137.342 Y139.714 E20.38444
G1 X136.529 Y140.108 E20.42512
G1 X135.685 Y140.428 E20.46576
G1 X134.815 Y140.673 E20.50646
G1 X133.928 Y140.839 E20.54709
G1 X132.777 Y140.937 E20.5991
G1 X132.456 Y140.946 E20.61356
G1 X132.17 Y140.95 E20.62644
G1 X103.075 Y140.949 E21.93647
G1 X102.377 Y140.94 E21.9679
G1 X101.476 Y140.889 E22.00853
G1 X100.582 Y140.757 E22.04922
G1 X99.704 Y140.548 E22.08986
G1 X98.847 Y140.261 E22.13055
G1 X98.02 Y139.9 E22.17118
G1 X97.227 Y139.467 E22.21186
G1 X96.476 Y138.966 E22.25251
G1 X95.772 Y138.4 E22.29319
G1 X95.121 Y137.774 E22.33385
G1 X94.528 Y137.093 E22.37451
G1 X93.998 Y136.362 E22.41516
G1 X93.534 Y135.587 E22.45583
G1 X93.14 Y134.774 E22.49651
G1 X92.82 Y133.93 E22.53715
G1 X92.576 Y133.06 E22.57784
G1 X92.41 Y132.172 E22.61851
G1 X92.313 Y131.017 E22.6707
G1 X92.304 Y130.684 E22.6857
G1 X92.3 Y130.408 E22.69813
G1 X92.301 Y104.786 E23.85178
G1 X92.31 Y104.121 E23.88173
G1 X92.362 Y103.219 E23.92241
G1 X92.494 Y102.326 E23.96305
G1 X92.704 Y101.448 E24.0037
G1 X92.991 Y100.591 E24.0444
G1 X93.353 Y99.764 E24.08504
G1 X93.786 Y98.972 E24.12569
G1 X94.288 Y98.221 E24.16636
G1 X94.855 Y97.517 E24.20706
G1 X95.481 Y96.867 E24.24769
G1 F2700 E18.24769
;MESH:sop_small_5_3.stl
G0 F7500 X118.708 Y116.682
G0 X117.218 Y115.566
G0 X117.371 Y115.681
;TYPE:WALL-INNER
G1 F2700 E24.24769
G1 F1800 X117.196 Y115.961 E24.26256
G1 X116.89 Y116.762 E24.30117
G1 X116.83 Y117.092 E24.31627
G1 X116.837 Y117.973 E24.35594
G1 X116.904 Y118.303 E24.3711
G1 X117.217 Y119.075 E24.40861
G1 X117.395 Y119.355 E24.42355
G1 X117.981 Y119.978 E24.46206
G1 X118.25 Y120.177 E24.47712
G1 X119.041 Y120.548 E24.51646
G1 X119.368 Y120.636 E24.53171
G1 X120.261 Y120.685 E24.57198
G1 X120.59 Y120.644 E24.58691
G1 X121.371 Y120.389 E24.6239
G1 X121.653 Y120.237 E24.63832
G1 X122.295 Y119.727 E24.67524
G1 X122.506 Y119.486 E24.68966
G1 X122.913 Y118.813 E24.72507
G1 X123.041 Y118.506 E24.74005
G1 X123.17 Y117.791 E24.77276
G1 X123.212 Y117.469 E24.78739
G1 X123.048 Y116.61 E24.82676
G1 X122.945 Y116.23 E24.84449
G1 X122.463 Y115.47 E24.88501
G1 X122.238 Y115.212 E24.90042
G1 X121.56 Y114.71 E24.93841
G1 X121.258 Y114.558 E24.95363
G1 X120.414 Y114.333 E24.99296
G1 X120.085 Y114.302 E25.00784
G1 X119.256 Y114.388 E25.04537
G1 X118.942 Y114.485 E25.06016
G1 X118.186 Y114.868 E25.09832
G1 X117.923 Y115.067 E25.11317
G1 X117.371 Y115.681 E25.15035
G0 F7500 X117.692 Y115.922
G1 F1800 X117.556 Y116.14 E25.16192
G1 X117.277 Y116.87 E25.1971
G1 X117.23 Y117.127 E25.20887
G1 X117.237 Y117.931 E25.24507
G1 X117.289 Y118.187 E25.25683
G1 X117.574 Y118.891 E25.29103
G1 X117.712 Y119.108 E25.30261
G1 X118.248 Y119.678 E25.33784
G1 X118.456 Y119.832 E25.34949
G1 X119.179 Y120.171 E25.38545
G1 X119.432 Y120.239 E25.39724
G1 X120.247 Y120.284 E25.43399
G1 X120.502 Y120.252 E25.44557
G1 X121.213 Y120.02 E25.47924
G1 X121.432 Y119.902 E25.49044
G1 X122.018 Y119.436 E25.52415
G1 X122.182 Y119.249 E25.53535
G1 X122.555 Y118.631 E25.56785
G1 X122.655 Y118.392 E25.57952
G1 X122.775 Y117.73 E25.60981
G1 X122.807 Y117.481 E25.62111
G1 X122.658 Y116.7 E25.65691
G1 X122.575 Y116.393 E25.67123
G1 X122.142 Y115.71 E25.70764
G1 X121.965 Y115.508 E25.71974
G1 X121.349 Y115.052 E25.75425
G1 X121.115 Y114.934 E25.76605
G1 X120.343 Y114.728 E25.80202
G1 X120.087 Y114.704 E25.8136
G1 X119.336 Y114.782 E25.8476
G1 X119.092 Y114.857 E25.85909
G1 X118.399 Y115.209 E25.89409
G1 X118.195 Y115.363 E25.9056
G1 X117.692 Y115.922 E25.93945
G0 F7500 X118.013 Y116.163
;TYPE:WALL-OUTER
G1 F1800 X117.916 Y116.319 E25.94731
G1 X117.664 Y116.979 E25.97753
G1 X117.63 Y117.162 E25.98549
G1 X117.637 Y117.889 E26.01659
G1 X117.674 Y118.071 E26.02454
G1 X117.931 Y118.707 E26.05388
G1 X118.029 Y118.861 E26.06169
G1 X118.515 Y119.378 E26.09204
G1 X118.662 Y119.487 E26.09986
G1 X119.317 Y119.794 E26.13081
G1 X119.496 Y119.842 E26.13873
G1 X120.233 Y119.883 E26.17031
G1 X120.414 Y119.86 E26.17811
G1 X121.055 Y119.651 E26.20695
G1 X121.211 Y119.567 E26.21453
G1 X121.741 Y119.145 E26.24351
G1 X121.858 Y119.012 E26.25109
G1 X122.197 Y118.45 E26.27916
G1 X122.269 Y118.278 E26.28714
G1 X122.38 Y117.669 E26.31362
G1 X122.402 Y117.494 E26.32116
G1 X122.268 Y116.79 E26.35181
G1 X122.205 Y116.556 E26.36218
G1 X121.821 Y115.95 E26.39287
G1 X121.693 Y115.804 E26.40117
G1 X121.138 Y115.394 E26.43069
G1 X120.972 Y115.31 E26.43865
G1 X120.272 Y115.123 E26.46964
G1 X120.089 Y115.106 E26.4775
G1 X119.416 Y115.176 E26.50644
G1 X119.242 Y115.229 E26.51422
G1 X118.612 Y115.549 E26.54445
G1 X118.467 Y115.659 E26.55223
G1 X118.013 Y116.163 E26.58125
G0 F7500 X117.916 Y116.319
G0 X117.839 Y116.521
G0 X117.428 Y116.363
G1 F2700 E20.58125
G0 F7500 X117.218 Y115.566
G0 X118.708 Y116.682
G0 X117.218 Y103.585
G0 X117.218 Y105.46
G0 X103.5 Y105.25
;TYPE:WALL-INNER
G1 F2700 E26.58125
G1 F1800 X131.5 Y105.25 E27.84197
G1 X131.5 Y129.75 E28.94511
G1 X103.5 Y129.75 E30.20583
G1 X103.5 Y105.25 E31.30897
G0 F7500 X103.1 Y104.85
G1 F1800 X131.9 Y104.85 E32.60571
G1 X131.9 Y130.15 E33.74487
G1 X103.1 Y130.15 E35.04162
G1 X103.1 Y104.85 E36.18077
G0 F7500 X102.7 Y104.45
;TYPE:WALL-OUTER
G1 F1800 X132.3 Y104.45 E37.4469
G1 X132.3 Y130.55 E38.56332
G1 X102.7 Y130.55 E39.82945
G1 X102.7 Y104.45 E40.94586
G0 F7500 X103.1 Y104.45
G0 X103.14 Y104.89
G0 X103.89 Y105.36
G0 X103.89 Y105.64
;TYPE:SKIN
G1 F1800 X131.11 Y105.64 E42.17147
G1 X131.11 Y129.36 E43.23948
G1 X103.89 Y129.36 E44.46509
G1 X103.89 Y105.64 E45.5331
G1 F2700 E39.5331
G0 F7500 X103.89 Y105.36
G0 X117.282 Y105.46
G0 X117.282 Y103.585
G0 X119.075 Y116.282
G0 X117.793 Y114.926
G0 X117.282 Y115.615
G0 X117.059 Y115.445
G1 F2700 E45.5331
G1 F1800 X116.845 Y115.786 E45.55123
G1 X116.513 Y116.657 E45.5932
G1 X116.44 Y117.059 E45.6116
G1 X116.447 Y118.014 E45.6546
G1 X116.529 Y118.416 E45.67307
G1 X116.868 Y119.254 E45.71377
G1 X117.085 Y119.595 E45.73197
G1 X117.721 Y120.271 E45.77376
G1 X118.049 Y120.514 E45.79214
G1 X118.906 Y120.916 E45.83476
G1 X119.306 Y121.024 E45.85342
G1 X120.275 Y121.077 E45.89711
G1 X120.676 Y121.026 E45.91531
G1 X121.525 Y120.749 E45.95552
G1 X121.869 Y120.564 E45.97311
G1 X122.566 Y120.01 E46.0132
G1 X122.822 Y119.718 E46.03069
G1 X123.262 Y118.99 E46.06899
G1 X123.417 Y118.617 E46.08717
G1 X123.556 Y117.851 E46.12223
G1 X123.606 Y117.457 E46.14011
G1 X123.428 Y116.522 E46.18296
G1 X123.306 Y116.071 E46.204
G1 X122.777 Y115.236 E46.24851
G1 X122.504 Y114.924 E46.26717
G1 X121.765 Y114.377 E46.30857
G1 X121.397 Y114.191 E46.32714
G1 X120.483 Y113.947 E46.36973
G1 X120.083 Y113.91 E46.38782
G1 X119.178 Y114.004 E46.42879
G1 X118.795 Y114.122 E46.44683
G1 X117.979 Y114.536 E46.48803
G1 X117.658 Y114.778 E46.50613
G1 X117.059 Y115.445 E46.5465
G1 F2700 E40.5465
G0 F7500 X117.282 Y115.615
G0 X121.326 Y114.379
G0 X120.683 Y116.132
G0 X133.165 Y114.379
G0 X131.29 Y114.379
G0 X131.39 Y106.058
G0 X130.949 Y106.058
G1 F2700 E46.5465
G1 F1800 X130.69 Y105.8 E46.56296
G0 F7500 X130.124 Y105.8
G1 F1800 X130.949 Y106.624 E46.61546
G0 F7500 X130.949 Y107.19
G1 F1800 X129.558 Y105.8 E46.704
G0 F7500 X128.993 Y105.8
G1 F1800 X130.949 Y107.756 E46.82855
G0 F7500 X130.949 Y108.321
G1 F1800 X128.427 Y105.8 E46.98911
G0 F7500 X127.861 Y105.8
G1 F1800 X130.949 Y108.887 E47.18571
G0 F7500 X130.949 Y109.453
G1 F1800 X127.296 Y105.8 E47.41832
G0 F7500 X126.73 Y105.8
G1 F1800 X130.949 Y110.018 E47.68694
G0 F7500 X130.949 Y110.584
G1 F1800 X126.164 Y105.8 E47.9916
G0 F7500 X125.599 Y105.8
G1 F1800 X130.949 Y111.15 E48.33227
G0 F7500 X130.949 Y111.715
G1 F1800 X125.033 Y105.8 E48.70894
G0 F7500 X124.467 Y105.8
G1 F1800 X130.949 Y112.281 E49.12166
G0 F7500 X130.949 Y112.847
G1 F1800 X123.902 Y105.8 E49.57039
G0 F7500 X123.336 Y105.8
G1 F1800 X130.949 Y113.412 E50.05512
G0 F7500 X130.949 Y113.978
G1 F1800 X122.77 Y105.8 E50.5759
G0 F7500 X122.205 Y105.8
G1 F1800 X130.949 Y114.544 E51.13268
G0 F7500 X130.949 Y115.109
G1 F1800 X121.639 Y105.8 E51.72548
G0 F7500 X121.073 Y105.8
G1 F1800 X130.949 Y115.675 E52.35431
G0 F7500 X130.949 Y116.241
G1 F1800 X120.507 Y105.8 E53.01919
G0 F7500 X119.942 Y105.8
G1 F1800 X130.949 Y116.806 E53.72004
G0 F7500 X130.949 Y117.372
G1 F1800 X119.376 Y105.8 E54.45693
G0 F7500 X118.81 Y105.8
G1 F1800 X130.949 Y117.938 E55.22987
G0 F7500 X130.949 Y118.504
G1 F1800 X118.245 Y105.8 E56.03881
G0 F7500 X117.679 Y105.8
G1 F1800 X130.949 Y119.069 E56.88376
G0 F7500 X130.949 Y119.635
G1 F1800 X117.113 Y105.8 E57.76476
G0 F7500 X116.548 Y105.8
G1 F1800 X130.949 Y120.201 E58.68176
G0 F7500 X130.949 Y120.766
G1 F1800 X115.982 Y105.8 E59.63477
G0 F7500 X115.416 Y105.8
