;FLAVOR:Marlin
M117 Time Left 0h55m53s
;TIME:3353
;Filament used: 4.05832m
;Layer height: 0.28
;MINX:91.5
;MINY:81.5
;MINZ:0.285
;MAXX:143.5
;MAXY:153.5
;MAXZ:29.965
;POSTPROCESSED
;Generated with Cura_SteamEngine 4.7.1
M140 S70
M105
M190 S70
M104 S240
M105
M109 S240
M82 ;absolute extrusion mode
; Ender 3 Custom Start G-code
G92 E0 ; Reset Extruder
G28 ; Home all axes
G1 Z2.0 F3000 ; Move Z Axis up little to prevent scratching of Heat Bed
G1 X0.1 Y20 Z0.3 F5000.0 ; Move to start position
G1 X0.1 Y200.0 Z0.3 F1500.0 E15 ; Draw the first line
G1 X0.4 Y200.0 Z0.3 F5000.0 ; Move to side a little
G1 X0.4 Y20 Z0.3 F1500.0 E30 ; Draw the second line
G92 E0 ; Reset Extruder
G1 Z2.0 F3000 ; Move Z Axis up little to prevent scratching of Heat Bed
G1 X5 Y20 Z0.3 F5000.0 ; Move over to prevent blob squish
G92 E0
G92 E0
G1 F2700 E-6
;LAYER_COUNT:107
;LAYER:0
M107
M204 S500
M205 X8 Y8
G0 F7500 X94.066 Y85.458 Z0.285
;TYPE:SKIRT
G1 F2700 E0
G1 F1500 X94.698 Y84.764 E0.04226
G1 X95.386 Y84.127 E0.08448
G1 X96.126 Y83.551 E0.1267
G1 X96.912 Y83.039 E0.16894
G1 X97.739 Y82.597 E0.21116
G1 X98.601 Y82.227 E0.2534
G1 X99.491 Y81.931 E0.29563
G1 X100.403 Y81.713 E0.33785
G1 X101.33 Y81.572 E0.38007
G1 X102.201 Y81.513 E0.41938
G1 X102.522 Y81.504 E0.43383
G1 X102.83 Y81.5 E0.4477
G1 X131.951 Y81.501 E1.7589
G1 X132.649 Y81.511 E1.79033
G1 X133.585 Y81.565 E1.83255
G1 X134.513 Y81.697 E1.87475
G1 X135.427 Y81.909 E1.917
G1 X136.319 Y82.198 E1.95922
G1 X137.184 Y82.561 E2.00146
G1 X138.014 Y82.997 E2.04367
G1 X138.805 Y83.502 E2.08593
G1 X139.549 Y84.073 E2.12815
G1 X140.242 Y84.705 E2.17038
G1 X140.879 Y85.393 E2.2126
G1 X141.454 Y86.134 E2.25483
G1 X141.965 Y86.92 E2.29704
G1 X142.407 Y87.748 E2.3393
G1 X142.776 Y88.61 E2.38152
G1 X143.071 Y89.5 E2.42374
G1 X143.289 Y90.412 E2.46596
G1 X143.429 Y91.34 E2.50822
G1 X143.487 Y92.201 E2.54707
G1 X143.496 Y92.521 E2.56149
G1 X143.5 Y92.83 E2.5754
G1 X143.499 Y141.9 E4.78482
G1 X143.49 Y142.627 E4.81756
G1 X143.439 Y143.564 E4.85981
G1 X143.307 Y144.492 E4.90201
G1 X143.098 Y145.406 E4.94423
G1 X142.811 Y146.299 E4.98646
G1 X142.449 Y147.165 E5.02873
G1 X142.015 Y147.996 E5.07094
G1 X141.511 Y148.787 E5.11317
G1 X140.942 Y149.532 E5.15538
G1 X140.311 Y150.227 E5.19764
G1 X139.624 Y150.865 E5.23986
G1 X138.885 Y151.442 E5.28207
G1 X138.099 Y151.954 E5.32431
G1 X137.273 Y152.397 E5.36651
G1 X136.411 Y152.769 E5.40879
G1 X135.522 Y153.065 E5.45097
G1 X134.61 Y153.285 E5.49322
G1 X133.683 Y153.426 E5.53543
G1 X132.799 Y153.487 E5.57533
G1 X132.478 Y153.496 E5.58979
G1 X132.17 Y153.5 E5.60366
G1 X103.065 Y153.499 E6.91414
G1 X102.367 Y153.49 E6.94557
G1 X101.431 Y153.438 E6.98778
G1 X100.502 Y153.306 E7.03003
G1 X99.588 Y153.096 E7.07225
G1 X98.695 Y152.809 E7.11449
G1 X97.83 Y152.446 E7.15673
G1 X96.999 Y152.012 E7.19894
G1 X96.208 Y151.508 E7.24117
G1 X95.463 Y150.938 E7.28341
G1 X94.769 Y150.307 E7.32564
G1 X94.132 Y149.62 E7.36782
G1 X93.555 Y148.88 E7.41007
G1 X93.043 Y148.094 E7.45231
G1 X92.6 Y147.267 E7.49455
G1 X92.229 Y146.406 E7.53676
G1 X91.933 Y145.516 E7.579
G1 X91.714 Y144.604 E7.62123
G1 X91.573 Y143.677 E7.66345
G1 X91.513 Y142.788 E7.70357
G1 X91.504 Y142.455 E7.71856
G1 X91.5 Y142.158 E7.73194
G1 X91.501 Y93.025 E9.9442
G1 X91.51 Y92.36 E9.97414
G1 X91.563 Y91.424 E10.01635
G1 X91.695 Y90.495 E10.0586
G1 X91.906 Y89.581 E10.10084
G1 X92.194 Y88.689 E10.14304
G1 X92.557 Y87.824 E10.18528
G1 X92.992 Y86.993 E10.22751
G1 X93.496 Y86.203 E10.26971
G1 X94.066 Y85.458 E10.31194
G0 F7500 X94.461 Y85.611
G1 F1500 X95.089 Y84.939 E10.35336
G1 X95.774 Y84.323 E10.39484
G1 X96.51 Y83.77 E10.43629
G1 X97.291 Y83.282 E10.47775
G1 X98.111 Y82.864 E10.51919
G1 X98.965 Y82.519 E10.56066
G1 X99.845 Y82.249 E10.60211
G1 X100.745 Y82.057 E10.64355
G1 X101.659 Y81.943 E10.68502
G1 X102.212 Y81.913 E10.70995
G1 X102.533 Y81.904 E10.72441
G1 X102.83 Y81.9 E10.73779
G1 X131.793 Y81.9 E12.04187
G1 X132.643 Y81.911 E12.08015
G1 X133.562 Y81.964 E12.1216
G1 X134.473 Y82.097 E12.16305
G1 X135.369 Y82.308 E12.2045
G1 X136.243 Y82.596 E12.24593
G1 X137.09 Y82.959 E12.28742
G1 X137.901 Y83.394 E12.32886
G1 X138.671 Y83.898 E12.3703
G1 X139.395 Y84.467 E12.41176
G1 X140.067 Y85.097 E12.45323
G1 X140.682 Y85.782 E12.49468
G1 X141.235 Y86.518 E12.53613
G1 X141.722 Y87.299 E12.57757
G1 X142.139 Y88.12 E12.61903
G1 X142.484 Y88.974 E12.66051
G1 X142.753 Y89.854 E12.70194
G1 X142.945 Y90.755 E12.74342
G1 X143.058 Y91.668 E12.78484
G1 X143.087 Y92.212 E12.80937
G1 X143.096 Y92.532 E12.82378
G1 X143.1 Y92.83 E12.8372
G1 X143.099 Y141.895 E15.0464
G1 X143.09 Y142.622 E15.07913
G1 X143.039 Y143.541 E15.12058
G1 X142.908 Y144.453 E15.16206
G1 X142.698 Y145.349 E15.2035
G1 X142.412 Y146.224 E15.24495
G1 X142.051 Y147.071 E15.2864
G1 X141.617 Y147.883 E15.32786
G1 X141.115 Y148.655 E15.36932
G1 X140.547 Y149.38 E15.41079
G1 X139.919 Y150.053 E15.45224
G1 X139.235 Y150.669 E15.49368
G1 X138.5 Y151.223 E15.53513
G1 X137.72 Y151.712 E15.57658
G1 X136.9 Y152.131 E15.61804
G1 X136.047 Y152.477 E15.65949
G1 X135.167 Y152.748 E15.70094
G1 X134.267 Y152.941 E15.74239
G1 X133.353 Y153.056 E15.78387
G1 X132.788 Y153.087 E15.80934
G1 X132.467 Y153.096 E15.8238
G1 X132.17 Y153.1 E15.83718
G1 X103.07 Y153.099 E17.14743
G1 X102.372 Y153.09 E17.17886
G1 X101.453 Y153.038 E17.22031
G1 X100.542 Y152.907 E17.26175
G1 X99.646 Y152.697 E17.30318
G1 X98.771 Y152.41 E17.34465
G1 X97.924 Y152.048 E17.38612
G1 X97.112 Y151.614 E17.42758
G1 X96.341 Y151.112 E17.469
G1 X95.616 Y150.544 E17.51047
G1 X94.943 Y149.915 E17.55195
G1 X94.328 Y149.231 E17.59336
G1 X93.774 Y148.496 E17.63481
G1 X93.286 Y147.715 E17.67627
G1 X92.867 Y146.895 E17.71773
G1 X92.521 Y146.042 E17.75918
G1 X92.251 Y145.162 E17.80063
G1 X92.058 Y144.261 E17.84211
G1 X91.944 Y143.348 E17.88354
G1 X91.913 Y142.777 E17.90929
G1 X91.904 Y142.444 E17.92429
G1 X91.9 Y142.158 E17.93717
G1 X91.901 Y93.031 E20.14916
G1 X91.91 Y92.366 E20.1791
G1 X91.962 Y91.446 E20.22059
G1 X92.094 Y90.535 E20.26204
G1 X92.305 Y89.639 E20.30348
G1 X92.592 Y88.764 E20.34495
G1 X92.955 Y87.918 E20.3864
G1 X93.389 Y87.106 E20.42785
G1 X93.892 Y86.335 E20.4693
G1 X94.461 Y85.611 E20.51076
G0 F7500 X94.855 Y85.767
G1 F1500 X95.481 Y85.117 E20.5514
G1 X96.162 Y84.524 E20.59205
G1 X96.894 Y83.994 E20.63275
G1 X97.669 Y83.531 E20.67339
G1 X98.482 Y83.138 E20.71405
G1 X99.327 Y82.818 E20.75474
G1 X100.196 Y82.575 E20.79536
G1 X101.084 Y82.409 E20.83604
G1 X102.223 Y82.313 E20.88751
G1 X102.544 Y82.304 E20.90197
G1 X102.83 Y82.3 E20.91484
G1 X131.793 Y82.3 E22.21893
G1 X132.637 Y82.311 E22.25693
G1 X133.539 Y82.364 E22.29762
G1 X134.432 Y82.496 E22.33826
G1 X135.31 Y82.707 E22.37892
G1 X136.166 Y82.995 E22.41959
G1 X136.993 Y83.357 E22.46023
G1 X137.785 Y83.792 E22.50092
G1 X138.536 Y84.294 E22.54159
G1 X139.239 Y84.861 E22.58226
G1 X139.889 Y85.488 E22.62292
G1 X140.481 Y86.17 E22.66359
G1 X141.011 Y86.901 E22.70424
G1 X141.473 Y87.677 E22.7449
G1 X141.866 Y88.49 E22.78556
G1 X142.184 Y89.335 E22.82621
G1 X142.427 Y90.205 E22.86689
G1 X142.592 Y91.093 E22.90755
G1 X142.687 Y92.223 E22.95861
G1 X142.696 Y92.543 E22.97303
G1 X142.7 Y92.83 E22.98595
G1 X142.699 Y141.89 E25.19492
G1 X142.69 Y142.617 E25.22766
G1 X142.639 Y143.519 E25.26834
G1 X142.508 Y144.413 E25.30902
G1 X142.299 Y145.291 E25.34966
G1 X142.013 Y146.148 E25.39033
G1 X141.652 Y146.976 E25.43101
G1 X141.22 Y147.768 E25.47163
G1 X140.719 Y148.52 E25.51231
G1 X140.153 Y149.224 E25.55298
G1 X139.528 Y149.875 E25.59362
G1 X138.847 Y150.469 E25.63431
G1 X138.116 Y151 E25.67499
G1 X137.342 Y151.464 E25.71562
G1 X136.529 Y151.858 E25.7563
G1 X135.685 Y152.178 E25.79694
G1 X134.815 Y152.423 E25.83764
G1 X133.928 Y152.589 E25.87827
G1 X132.777 Y152.687 E25.93028
G1 X132.456 Y152.696 E25.94474
G1 X132.17 Y152.7 E25.95762
G1 X103.075 Y152.699 E27.26765
G1 X102.377 Y152.69 E27.29908
G1 X101.476 Y152.639 E27.33971
G1 X100.582 Y152.507 E27.3804
G1 X99.704 Y152.298 E27.42104
G1 X98.847 Y152.011 E27.46173
G1 X98.02 Y151.65 E27.50236
G1 X97.227 Y151.217 E27.54304
G1 X96.476 Y150.716 E27.58369
G1 X95.772 Y150.15 E27.62436
G1 X95.121 Y149.524 E27.66503
G1 X94.528 Y148.843 E27.70569
G1 X93.998 Y148.112 E27.74634
G1 X93.534 Y147.337 E27.78701
G1 X93.14 Y146.524 E27.82769
G1 X92.82 Y145.68 E27.86833
G1 X92.576 Y144.81 E27.90902
G1 X92.41 Y143.922 E27.94969
G1 X92.313 Y142.767 E28.00188
G1 X92.304 Y142.434 E28.01688
G1 X92.3 Y142.158 E28.02931
G1 X92.301 Y93.036 E30.24107
G1 X92.31 Y92.371 E30.27101
G1 X92.362 Y91.469 E30.31169
G1 X92.494 Y90.576 E30.35234
G1 X92.704 Y89.698 E30.39299
G1 X92.991 Y88.841 E30.43368
G1 X93.353 Y88.014 E30.47433
G1 X93.786 Y87.222 E30.51497
G1 X94.288 Y86.471 E30.55564
G1 X94.855 Y85.767 E30.59634
G1 F2700 E24.59634
;MESH:soporte.stl
G0 F7500 X119.414 Y127.838
G0 X118.548 Y126.188
G0 X118.637 Y126.358
;TYPE:WALL-INNER
G1 F2700 E30.59634
G1 F1800 X117.887 Y126.849 E30.63671
G1 X117.641 Y127.093 E30.65231
G1 X117.133 Y127.833 E30.69272
G1 X116.995 Y128.161 E30.70875
G1 X116.808 Y129.078 E30.75088
G1 X116.808 Y129.428 E30.76664
G1 X116.974 Y130.285 E30.80595
G1 X117.105 Y130.606 E30.82156
G1 X117.591 Y131.352 E30.86165
G1 X117.836 Y131.603 E30.87744
G1 X118.582 Y132.115 E30.91818
G1 X118.903 Y132.252 E30.93389
G1 X119.746 Y132.44 E30.97278
G1 X120.098 Y132.442 E30.98863
G1 X121.013 Y132.284 E31.03044
G1 X121.349 Y132.149 E31.04674
G1 X122.121 Y131.637 E31.08845
G1 X122.369 Y131.406 E31.10371
G1 X122.818 Y130.74 E31.13988
G1 X122.978 Y130.453 E31.15467
G1 X123.031 Y130.172 E31.16755
G1 X123.22 Y129.26 E31.20949
G1 X123.048 Y128.352 E31.2511
G1 X122.934 Y127.958 E31.26956
G1 X122.422 Y127.165 E31.31207
G1 X122.199 Y126.934 E31.32652
G1 X122.171 Y126.904 E31.32837
G1 X122.138 Y126.882 E31.33016
G1 X121.457 Y126.413 E31.36739
G1 X121.425 Y126.39 E31.36916
G1 X121.103 Y126.249 E31.38499
G1 X120.251 Y126.064 E31.42424
G1 X119.897 Y126.055 E31.44019
G1 X118.969 Y126.225 E31.48267
G1 X118.637 Y126.358 E31.49877
G0 F7500 X118.823 Y126.714
G1 F1800 X118.14 Y127.162 E31.53555
G1 X117.949 Y127.351 E31.54765
G1 X117.486 Y128.026 E31.5845
G1 X117.379 Y128.28 E31.59691
G1 X117.208 Y129.118 E31.63542
G1 X117.208 Y129.39 E31.64767
G1 X117.359 Y130.17 E31.68344
G1 X117.461 Y130.419 E31.69556
G1 X117.905 Y131.101 E31.7322
G1 X118.095 Y131.296 E31.74446
G1 X118.776 Y131.763 E31.78164
G1 X119.026 Y131.87 E31.79388
G1 X119.791 Y132.04 E31.82917
G1 X120.065 Y132.042 E31.8415
G1 X120.903 Y131.897 E31.8798
G1 X121.162 Y131.793 E31.89236
G1 X121.873 Y131.322 E31.93076
G1 X122.063 Y131.145 E31.94246
G1 X122.477 Y130.53 E31.97584
G1 X122.597 Y130.315 E31.98692
G1 X122.639 Y130.091 E31.99718
G1 X122.812 Y129.256 E32.03558
G1 X122.659 Y128.445 E32.07274
G1 X122.566 Y128.126 E32.0877
G1 X122.107 Y127.414 E32.12584
G1 X121.911 Y127.21 E32.13858
G1 X121.23 Y126.741 E32.17581
G1 X120.979 Y126.631 E32.18815
G1 X120.203 Y126.463 E32.2239
G1 X119.928 Y126.456 E32.23629
G1 X119.08 Y126.611 E32.2751
G1 X118.823 Y126.714 E32.28757
G0 F7500 X119.009 Y127.07
;TYPE:WALL-OUTER
G1 F1800 X118.393 Y127.474 E32.31908
G1 X118.258 Y127.608 E32.32721
G1 X117.839 Y128.219 E32.35891
G1 X117.763 Y128.399 E32.36726
G1 X117.608 Y129.158 E32.4004
G1 X117.608 Y129.352 E32.4087
G1 X117.744 Y130.055 E32.43933
G1 X117.817 Y130.232 E32.44751
G1 X118.219 Y130.85 E32.47905
G1 X118.354 Y130.989 E32.48734
G1 X118.97 Y131.411 E32.51928
G1 X119.149 Y131.488 E32.52761
G1 X119.837 Y131.64 E32.55775
G1 X120.033 Y131.642 E32.56614
G1 X120.793 Y131.51 E32.59913
G1 X120.975 Y131.437 E32.60752
G1 X121.625 Y131.007 E32.64086
G1 X121.757 Y130.884 E32.64857
G1 X122.136 Y130.32 E32.67764
G1 X122.216 Y130.177 E32.68465
G1 X122.247 Y130.01 E32.69191
G1 X122.404 Y129.252 E32.72502
G1 X122.27 Y128.539 E32.75606
G1 X122.198 Y128.294 E32.76698
G1 X121.792 Y127.663 E32.79907
G1 X121.651 Y127.516 E32.80779
G1 X121.034 Y127.092 E32.83981
G1 X120.855 Y127.013 E32.84818
G1 X120.155 Y126.862 E32.87881
G1 X119.959 Y126.857 E32.8872
G1 X119.191 Y126.997 E32.92059
G1 X119.009 Y127.07 E32.92898
G0 F7500 X118.675 Y127.289
G0 X118.435 Y126.921
G1 F2700 E26.92898
G0 F7500 X119.882 Y125.864
G0 X120.026 Y127.723
G0 X119.462 Y107.18
G0 X118.664 Y108.867
G0 X117.554 Y106.733
G0 X117.383 Y105.792
G0 X117.544 Y103.708
;TYPE:WALL-INNER
G1 F2700 E32.92898
G1 F1800 X117.063 Y104.48 E32.96993
G1 X116.949 Y104.805 E32.98544
G1 X116.8 Y105.652 E33.02416
G1 X116.817 Y106.001 E33.0399
G1 X117.021 Y106.918 E33.08219
G1 X117.176 Y107.238 E33.0982
G1 X117.704 Y107.982 E33.13928
G1 X117.966 Y108.212 E33.15498
G1 X118.746 Y108.694 E33.19626
G1 X119.084 Y108.808 E33.21232
G1 X120.016 Y108.948 E33.25476
G1 X120.362 Y108.925 E33.27037
G1 X121.217 Y108.712 E33.31005
G1 X121.532 Y108.551 E33.32597
G1 X122.217 Y108.055 E33.36405
G1 X122.458 Y107.798 E33.37992
G1 X122.863 Y107.15 E33.41432
G1 X123.018 Y106.84 E33.42993
G1 X123.168 Y106.026 E33.4672
G1 X123.217 Y105.723 E33.48102
G1 X123.007 Y104.746 E33.52601
G1 X122.884 Y104.336 E33.54529
G1 X122.32 Y103.562 E33.58841
G1 X122.071 Y103.307 E33.60445
G1 X121.332 Y102.849 E33.6436
G1 X121.014 Y102.713 E33.65917
G1 X120.147 Y102.559 E33.69882
G1 X119.796 Y102.558 E33.71463
G1 X118.863 Y102.761 E33.75762
G1 X118.538 Y102.907 E33.77366
G1 X117.778 Y103.447 E33.81564
G1 X117.544 Y103.708 E33.83142
G0 F7500 X117.865 Y103.949
G1 F1800 X117.426 Y104.654 E33.86882
G1 X117.337 Y104.907 E33.88089
G1 X117.202 Y105.677 E33.91609
G1 X117.215 Y105.948 E33.92831
G1 X117.401 Y106.786 E33.96696
G1 X117.521 Y107.034 E33.97936
G1 X118.003 Y107.712 E34.01682
G1 X118.205 Y107.889 E34.02891
G1 X118.917 Y108.33 E34.06662
G1 X119.178 Y108.418 E34.07902
G1 X120.032 Y108.546 E34.1179
G1 X120.3 Y108.528 E34.13
G1 X121.076 Y108.335 E34.166
G1 X121.323 Y108.209 E34.17849
G1 X121.951 Y107.754 E34.2134
G1 X122.139 Y107.553 E34.2258
G1 X122.514 Y106.954 E34.25762
G1 X122.635 Y106.712 E34.2698
G1 X122.774 Y105.958 E34.30432
G1 X122.81 Y105.734 E34.31454
G1 X122.619 Y104.846 E34.35543
G1 X122.52 Y104.516 E34.37095
G1 X122.014 Y103.821 E34.40965
G1 X121.819 Y103.621 E34.42223
G1 X121.147 Y103.205 E34.45782
G1 X120.899 Y103.099 E34.46996
G1 X120.111 Y102.959 E34.506
G1 X119.838 Y102.958 E34.51829
G1 X118.989 Y103.143 E34.55741
G1 X118.738 Y103.256 E34.56981
G1 X118.046 Y103.747 E34.60801
G1 X117.865 Y103.949 E34.62022
G0 F7500 X118.186 Y104.19
;TYPE:WALL-OUTER
G1 F1800 X117.789 Y104.828 E34.65237
G1 X117.725 Y105.009 E34.66058
G1 X117.604 Y105.702 E34.69067
G1 X117.613 Y105.895 E34.69893
G1 X117.781 Y106.654 E34.73219
G1 X117.866 Y106.83 E34.74055
G1 X118.302 Y107.442 E34.77269
G1 X118.444 Y107.567 E34.78078
G1 X119.089 Y107.966 E34.81322
G1 X119.272 Y108.028 E34.82149
G1 X120.048 Y108.144 E34.85505
G1 X120.238 Y108.131 E34.86319
G1 X120.935 Y107.958 E34.89391
G1 X121.114 Y107.867 E34.9025
G1 X121.685 Y107.453 E34.93267
G1 X121.821 Y107.308 E34.94117
G1 X122.165 Y106.758 E34.96892
G1 X122.252 Y106.584 E34.97724
G1 X122.38 Y105.89 E35.00743
G1 X122.403 Y105.745 E35.01371
G1 X122.231 Y104.946 E35.04867
G1 X122.156 Y104.696 E35.05983
G1 X121.707 Y104.079 E35.09248
G1 X121.567 Y103.935 E35.10107
G1 X120.962 Y103.561 E35.13149
G1 X120.784 Y103.485 E35.13977
G1 X120.075 Y103.359 E35.17057
G1 X119.88 Y103.358 E35.17891
G1 X119.115 Y103.525 E35.21241
G1 X118.938 Y103.605 E35.22071
G1 X118.314 Y104.048 E35.25345
G1 X118.186 Y104.19 E35.26163
G0 F7500 X117.975 Y104.529
G0 X117.603 Y104.297
G1 F2700 E29.26163
G0 F7500 X118.819 Y103.397
G0 X121.069 Y102.529
G0 X120.535 Y104.318
G0 X121.069 Y91.835
G0 X121.069 Y93.71
G0 X131.5 Y93.5
;TYPE:WALL-INNER
G1 F2700 E35.26163
G1 F1800 X131.5 Y141.5 E37.42287
G1 X103.5 Y141.5 E38.68359
G1 X103.5 Y93.5 E40.84484
G1 X131.5 Y93.5 E42.10556
G0 F7500 X131.9 Y93.1
G1 F1800 X131.9 Y141.9 E44.30283
G1 X103.1 Y141.9 E45.59957
G1 X103.1 Y93.1 E47.79684
G1 X131.9 Y93.1 E49.09358
G0 F7500 X132.3 Y92.7
;TYPE:WALL-OUTER
G1 F1800 X132.3 Y142.3 E51.21521
G1 X102.7 Y142.3 E52.48133
G1 X102.7 Y92.7 E54.60295
G1 X132.3 Y92.7 E55.86908
G0 F7500 X132.3 Y93.1
G0 X131.86 Y93.14
G0 X131.11 Y93.61
G0 X131.11 Y93.89
;TYPE:SKIN
G1 F1800 X131.11 Y141.11 E57.99521
G1 X103.89 Y141.11 E59.22081
G1 X103.89 Y93.89 E61.34693
