;FLAVOR:Marlin
M117 Time Left 0h45m55s
;TIME:2755
;Filament used: 3.35964m
;Layer height: 0.28
;MINX:91.5
;MINY:81.5
;MINZ:0.285
;MAXX:143.5
;MAXY:153.5
;MAXZ:27.445
;POSTPROCESSED
;Generated with Cura_SteamEngine 4.7.1
M140 S70
M105
M190 S70
M104 S240
M105
M109 S240
M82 ;absolute extrusion mode
; Ender 3 Custom Start G-code
G92 E0 ; Reset Extruder
G28 ; Home all axes
G1 Z2.0 F3000 ; Move Z Axis up little to prevent scratching of Heat Bed
G1 X0.1 Y20 Z0.3 F5000.0 ; Move to start position
G1 X0.1 Y200.0 Z0.3 F1500.0 E15 ; Draw the first line
G1 X0.4 Y200.0 Z0.3 F5000.0 ; Move to side a little
G1 X0.4 Y20 Z0.3 F1500.0 E30 ; Draw the second line
G92 E0 ; Reset Extruder
G1 Z2.0 F3000 ; Move Z Axis up little to prevent scratching of Heat Bed
G1 X5 Y20 Z0.3 F5000.0 ; Move over to prevent blob squish
G92 E0
G92 E0
G1 F2700 E-6
;LAYER_COUNT:98
;LAYER:0
M107
M204 S500
M205 X8 Y8
G0 F7500 X94.066 Y85.458 Z0.285
;TYPE:SKIRT
G1 F2700 E0
G1 F1500 X94.698 Y84.764 E0.04226
G1 X95.386 Y84.127 E0.08448
G1 X96.126 Y83.551 E0.1267
G1 X96.912 Y83.039 E0.16894
G1 X97.739 Y82.597 E0.21116
G1 X98.601 Y82.227 E0.2534
G1 X99.491 Y81.931 E0.29563
G1 X100.403 Y81.713 E0.33785
G1 X101.33 Y81.572 E0.38007
G1 X102.201 Y81.513 E0.41938
G1 X102.522 Y81.504 E0.43383
G1 X102.83 Y81.5 E0.4477
G1 X131.951 Y81.501 E1.7589
G1 X132.649 Y81.511 E1.79033
G1 X133.585 Y81.565 E1.83255
G1 X134.513 Y81.697 E1.87475
G1 X135.427 Y81.909 E1.917
G1 X136.319 Y82.198 E1.95922
G1 X137.184 Y82.561 E2.00146
G1 X138.014 Y82.997 E2.04367
G1 X138.805 Y83.502 E2.08593
G1 X139.549 Y84.073 E2.12815
G1 X140.242 Y84.705 E2.17038
G1 X140.879 Y85.393 E2.2126
G1 X141.454 Y86.134 E2.25483
G1 X141.965 Y86.92 E2.29704
G1 X142.407 Y87.748 E2.3393
G1 X142.776 Y88.61 E2.38152
G1 X143.071 Y89.5 E2.42374
G1 X143.289 Y90.412 E2.46596
G1 X143.429 Y91.34 E2.50822
G1 X143.487 Y92.201 E2.54707
G1 X143.496 Y92.521 E2.56149
G1 X143.5 Y92.83 E2.5754
G1 X143.499 Y141.9 E4.78482
G1 X143.49 Y142.627 E4.81756
G1 X143.439 Y143.564 E4.85981
G1 X143.307 Y144.492 E4.90201
G1 X143.098 Y145.406 E4.94423
G1 X142.811 Y146.299 E4.98646
G1 X142.449 Y147.165 E5.02873
G1 X142.015 Y147.996 E5.07094
G1 X141.511 Y148.787 E5.11317
G1 X140.942 Y149.532 E5.15538
G1 X140.311 Y150.227 E5.19764
G1 X139.624 Y150.865 E5.23986
G1 X138.885 Y151.442 E5.28207
G1 X138.099 Y151.954 E5.32431
G1 X137.273 Y152.397 E5.36651
G1 X136.411 Y152.769 E5.40879
G1 X135.522 Y153.065 E5.45097
G1 X134.61 Y153.285 E5.49322
G1 X133.683 Y153.426 E5.53543
G1 X132.799 Y153.487 E5.57533
G1 X132.478 Y153.496 E5.58979
G1 X132.17 Y153.5 E5.60366
G1 X103.065 Y153.499 E6.91414
G1 X102.367 Y153.49 E6.94557
G1 X101.431 Y153.438 E6.98778
G1 X100.502 Y153.306 E7.03003
G1 X99.588 Y153.096 E7.07225
G1 X98.695 Y152.809 E7.11449
G1 X97.83 Y152.446 E7.15673
G1 X96.999 Y152.012 E7.19894
G1 X96.208 Y151.508 E7.24117
G1 X95.463 Y150.938 E7.28341
G1 X94.769 Y150.307 E7.32564
G1 X94.132 Y149.62 E7.36782
G1 X93.555 Y148.88 E7.41007
G1 X93.043 Y148.094 E7.45231
G1 X92.6 Y147.267 E7.49455
G1 X92.229 Y146.406 E7.53676
G1 X91.933 Y145.516 E7.579
G1 X91.714 Y144.604 E7.62123
G1 X91.573 Y143.677 E7.66345
G1 X91.513 Y142.788 E7.70357
G1 X91.504 Y142.455 E7.71856
G1 X91.5 Y142.158 E7.73194
G1 X91.501 Y93.025 E9.9442
G1 X91.51 Y92.36 E9.97414
G1 X91.563 Y91.424 E10.01635
G1 X91.695 Y90.495 E10.0586
G1 X91.906 Y89.581 E10.10084
G1 X92.194 Y88.689 E10.14304
G1 X92.557 Y87.824 E10.18528
G1 X92.992 Y86.993 E10.22751
G1 X93.496 Y86.203 E10.26971
G1 X94.066 Y85.458 E10.31194
G0 F7500 X94.461 Y85.611
G1 F1500 X95.089 Y84.939 E10.35336
G1 X95.774 Y84.323 E10.39484
G1 X96.51 Y83.77 E10.43629
G1 X97.291 Y83.282 E10.47775
G1 X98.111 Y82.864 E10.51919
G1 X98.965 Y82.519 E10.56066
G1 X99.845 Y82.249 E10.60211
G1 X100.745 Y82.057 E10.64355
G1 X101.659 Y81.943 E10.68502
G1 X102.212 Y81.913 E10.70995
G1 X102.533 Y81.904 E10.72441
G1 X102.83 Y81.9 E10.73779
G1 X131.793 Y81.9 E12.04187
G1 X132.643 Y81.911 E12.08015
G1 X133.562 Y81.964 E12.1216
G1 X134.473 Y82.097 E12.16305
G1 X135.369 Y82.308 E12.2045
G1 X136.243 Y82.596 E12.24593
G1 X137.09 Y82.959 E12.28742
G1 X137.901 Y83.394 E12.32886
G1 X138.671 Y83.898 E12.3703
G1 X139.395 Y84.467 E12.41176
G1 X140.067 Y85.097 E12.45323
G1 X140.682 Y85.782 E12.49468
G1 X141.235 Y86.518 E12.53613
G1 X141.722 Y87.299 E12.57757
G1 X142.139 Y88.12 E12.61903
G1 X142.484 Y88.974 E12.66051
G1 X142.753 Y89.854 E12.70194
G1 X142.945 Y90.755 E12.74342
G1 X143.058 Y91.668 E12.78484
G1 X143.087 Y92.212 E12.80937
G1 X143.096 Y92.532 E12.82378
G1 X143.1 Y92.83 E12.8372
G1 X143.099 Y141.895 E15.0464
G1 X143.09 Y142.622 E15.07913
G1 X143.039 Y143.541 E15.12058
G1 X142.908 Y144.453 E15.16206
G1 X142.698 Y145.349 E15.2035
G1 X142.412 Y146.224 E15.24495
G1 X142.051 Y147.071 E15.2864
G1 X141.617 Y147.883 E15.32786
G1 X141.115 Y148.655 E15.36932
G1 X140.547 Y149.38 E15.41079
G1 X139.919 Y150.053 E15.45224
G1 X139.235 Y150.669 E15.49368
G1 X138.5 Y151.223 E15.53513
G1 X137.72 Y151.712 E15.57658
G1 X136.9 Y152.131 E15.61804
G1 X136.047 Y152.477 E15.65949
G1 X135.167 Y152.748 E15.70094
G1 X134.267 Y152.941 E15.74239
G1 X133.353 Y153.056 E15.78387
G1 X132.788 Y153.087 E15.80934
G1 X132.467 Y153.096 E15.8238
G1 X132.17 Y153.1 E15.83718
G1 X103.07 Y153.099 E17.14743
G1 X102.372 Y153.09 E17.17886
G1 X101.453 Y153.038 E17.22031
G1 X100.542 Y152.907 E17.26175
G1 X99.646 Y152.697 E17.30318
G1 X98.771 Y152.41 E17.34465
G1 X97.924 Y152.048 E17.38612
G1 X97.112 Y151.614 E17.42758
G1 X96.341 Y151.112 E17.469
G1 X95.616 Y150.544 E17.51047
G1 X94.943 Y149.915 E17.55195
G1 X94.328 Y149.231 E17.59336
G1 X93.774 Y148.496 E17.63481
G1 X93.286 Y147.715 E17.67627
G1 X92.867 Y146.895 E17.71773
G1 X92.521 Y146.042 E17.75918
G1 X92.251 Y145.162 E17.80063
G1 X92.058 Y144.261 E17.84211
G1 X91.944 Y143.348 E17.88354
G1 X91.913 Y142.777 E17.90929
G1 X91.904 Y142.444 E17.92429
G1 X91.9 Y142.158 E17.93717
G1 X91.901 Y93.031 E20.14916
G1 X91.91 Y92.366 E20.1791
G1 X91.962 Y91.446 E20.22059
G1 X92.094 Y90.535 E20.26204
G1 X92.305 Y89.639 E20.30348
G1 X92.592 Y88.764 E20.34495
G1 X92.955 Y87.918 E20.3864
G1 X93.389 Y87.106 E20.42785
G1 X93.892 Y86.335 E20.4693
G1 X94.461 Y85.611 E20.51076
G0 F7500 X94.855 Y85.767
G1 F1500 X95.481 Y85.117 E20.5514
G1 X96.162 Y84.524 E20.59205
G1 X96.894 Y83.994 E20.63275
G1 X97.669 Y83.531 E20.67339
G1 X98.482 Y83.138 E20.71405
G1 X99.327 Y82.818 E20.75474
G1 X100.196 Y82.575 E20.79536
G1 X101.084 Y82.409 E20.83604
G1 X102.223 Y82.313 E20.88751
G1 X102.544 Y82.304 E20.90197
G1 X102.83 Y82.3 E20.91484
G1 X131.793 Y82.3 E22.21893
G1 X132.637 Y82.311 E22.25693
G1 X133.539 Y82.364 E22.29762
G1 X134.432 Y82.496 E22.33826
G1 X135.31 Y82.707 E22.37892
G1 X136.166 Y82.995 E22.41959
G1 X136.993 Y83.357 E22.46023
G1 X137.785 Y83.792 E22.50092
G1 X138.536 Y84.294 E22.54159
G1 X139.239 Y84.861 E22.58226
G1 X139.889 Y85.488 E22.62292
G1 X140.481 Y86.17 E22.66359
G1 X141.011 Y86.901 E22.70424
G1 X141.473 Y87.677 E22.7449
G1 X141.866 Y88.49 E22.78556
G1 X142.184 Y89.335 E22.82621
G1 X142.427 Y90.205 E22.86689
G1 X142.592 Y91.093 E22.90755
G1 X142.687 Y92.223 E22.95861
G1 X142.696 Y92.543 E22.97303
G1 X142.7 Y92.83 E22.98595
G1 X142.699 Y141.89 E25.19492
G1 X142.69 Y142.617 E25.22766
G1 X142.639 Y143.519 E25.26834
G1 X142.508 Y144.413 E25.30902
G1 X142.299 Y145.291 E25.34966
G1 X142.013 Y146.148 E25.39033
G1 X141.652 Y146.976 E25.43101
G1 X141.22 Y147.768 E25.47163
G1 X140.719 Y148.52 E25.51231
G1 X140.153 Y149.224 E25.55298
G1 X139.528 Y149.875 E25.59362
G1 X138.847 Y150.469 E25.63431
G1 X138.116 Y151 E25.67499
G1 X137.342 Y151.464 E25.71562
G1 X136.529 Y151.858 E25.7563
G1 X135.685 Y152.178 E25.79694
G1 X134.815 Y152.423 E25.83764
G1 X133.928 Y152.589 E25.87827
G1 X132.777 Y152.687 E25.93028
G1 X132.456 Y152.696 E25.94474
G1 X132.17 Y152.7 E25.95762
G1 X103.075 Y152.699 E27.26765
G1 X102.377 Y152.69 E27.29908
G1 X101.476 Y152.639 E27.33971
G1 X100.582 Y152.507 E27.3804
G1 X99.704 Y152.298 E27.42104
G1 X98.847 Y152.011 E27.46173
G1 X98.02 Y151.65 E27.50236
G1 X97.227 Y151.217 E27.54304
G1 X96.476 Y150.716 E27.58369
G1 X95.772 Y150.15 E27.62436
G1 X95.121 Y149.524 E27.66503
G1 X94.528 Y148.843 E27.70569
G1 X93.998 Y148.112 E27.74634
G1 X93.534 Y147.337 E27.78701
G1 X93.14 Y146.524 E27.82769
G1 X92.82 Y145.68 E27.86833
G1 X92.576 Y144.81 E27.90902
G1 X92.41 Y143.922 E27.94969
G1 X92.313 Y142.767 E28.00188
G1 X92.304 Y142.434 E28.01688
G1 X92.3 Y142.158 E28.02931
G1 X92.301 Y93.036 E30.24107
G1 X92.31 Y92.371 E30.27101
G1 X92.362 Y91.469 E30.31169
G1 X92.494 Y90.576 E30.35234
G1 X92.704 Y89.698 E30.39299
G1 X92.991 Y88.841 E30.43368
G1 X93.353 Y88.014 E30.47433
G1 X93.786 Y87.222 E30.51497
G1 X94.288 Y86.471 E30.55564
G1 X94.855 Y85.767 E30.59634
G1 F2700 E24.59634
;MESH:soporte_2.5_2.stl
G0 F7500 X117.974 Y128.184
G0 X117.148 Y126.505
G0 X117.233 Y126.678
;TYPE:WALL-INNER
G1 F2700 E30.59634
G1 F1800 X116.931 Y126.881 E30.61273
G1 X116.219 Y127.535 E30.65626
G1 X116.025 Y127.844 E30.67269
G1 X115.642 Y128.711 E30.71536
G1 X115.593 Y129.075 E30.7319
G1 X115.597 Y130.093 E30.77774
G1 X115.708 Y130.451 E30.79461
G1 X116.12 Y131.333 E30.83845
G1 X116.361 Y131.61 E30.85498
G1 X117.067 Y132.226 E30.89717
G1 X117.39 Y132.385 E30.91338
G1 X118.253 Y132.666 E30.95424
G1 X118.619 Y132.692 E30.97076
G1 X119.542 Y132.592 E31.01256
G1 X119.897 Y132.492 E31.02917
G1 X120.702 Y132.022 E31.07114
G1 X120.985 Y131.795 E31.08748
G1 X121.566 Y131.006 E31.13159
G1 X121.719 Y130.704 E31.14684
G1 X121.919 Y129.785 E31.18919
G1 X121.965 Y129.47 E31.20352
G1 X121.767 Y128.517 E31.24734
G1 X121.643 Y128.11 E31.2665
G1 X121.102 Y127.348 E31.30858
G1 X120.841 Y127.071 E31.32572
G1 X120.012 Y126.572 E31.36928
G1 X119.649 Y126.428 E31.38687
G1 X118.577 Y126.306 E31.43545
G1 X118.193 Y126.359 E31.4529
G1 X117.233 Y126.678 E31.49845
G0 F7500 X117.411 Y127.04
G1 F1800 X117.179 Y127.196 E31.51104
G1 X116.529 Y127.793 E31.55077
G1 X116.379 Y128.032 E31.56348
G1 X116.031 Y128.821 E31.60231
G1 X115.993 Y129.101 E31.61503
G1 X115.997 Y130.032 E31.65695
G1 X116.082 Y130.307 E31.66991
G1 X116.459 Y131.113 E31.70997
G1 X116.645 Y131.327 E31.72274
G1 X117.29 Y131.89 E31.76129
G1 X117.541 Y132.013 E31.77387
G1 X118.33 Y132.27 E31.81124
G1 X118.612 Y132.29 E31.82397
G1 X119.466 Y132.198 E31.86264
G1 X119.74 Y132.121 E31.87546
G1 X120.475 Y131.692 E31.91377
G1 X120.694 Y131.516 E31.92643
G1 X121.224 Y130.795 E31.96672
G1 X121.339 Y130.569 E31.97813
G1 X121.525 Y129.713 E32.01758
G1 X121.559 Y129.482 E32.02809
G1 X121.379 Y128.616 E32.06791
G1 X121.279 Y128.289 E32.08331
G1 X120.792 Y127.602 E32.12123
G1 X120.588 Y127.385 E32.13464
G1 X119.834 Y126.932 E32.17424
G1 X119.551 Y126.819 E32.18796
G1 X118.582 Y126.709 E32.23187
G1 X118.284 Y126.75 E32.24542
G1 X117.411 Y127.04 E32.28684
G0 F7500 X117.589 Y127.402
;TYPE:WALL-OUTER
G1 F1800 X117.428 Y127.511 E32.29515
G1 X116.839 Y128.052 E32.32936
G1 X116.733 Y128.22 E32.33786
G1 X116.42 Y128.931 E32.37109
G1 X116.393 Y129.127 E32.37955
G1 X116.397 Y129.971 E32.41565
G1 X116.456 Y130.163 E32.42425
G1 X116.798 Y130.893 E32.45873
G1 X116.929 Y131.044 E32.46728
G1 X117.513 Y131.554 E32.50044
G1 X117.691 Y131.641 E32.50892
G1 X118.407 Y131.874 E32.54113
G1 X118.605 Y131.888 E32.54962
G1 X119.39 Y131.804 E32.58339
G1 X119.583 Y131.75 E32.59196
G1 X120.247 Y131.362 E32.62486
G1 X120.402 Y131.237 E32.63337
G1 X120.882 Y130.584 E32.66804
G1 X120.959 Y130.433 E32.67529
G1 X121.131 Y129.641 E32.70996
G1 X121.153 Y129.494 E32.71631
G1 X120.991 Y128.716 E32.75031
G1 X120.915 Y128.468 E32.7614
G1 X120.481 Y127.856 E32.79349
G1 X120.334 Y127.699 E32.80269
G1 X119.656 Y127.291 E32.83654
G1 X119.453 Y127.21 E32.84589
G1 X118.587 Y127.112 E32.88317
G1 X118.375 Y127.141 E32.89232
G1 X117.589 Y127.402 E32.92775
G0 F7500 X117.428 Y127.511
G0 X117.277 Y127.65
G0 X116.98 Y127.325
G1 F2700 E26.92775
G0 F7500 X118.149 Y126.173
G0 X118.571 Y127.987
G0 X117.972 Y106.815
G0 X116.933 Y108.373
G0 X116.158 Y106.003
G0 X116.207 Y103.561
;TYPE:WALL-INNER
G1 F2700 E32.92775
G1 F1800 X116.036 Y103.828 E32.94202
G1 X115.644 Y104.709 E32.98544
G1 X115.592 Y105.068 E33.00177
G1 X115.597 Y106.087 E33.04766
G1 X115.703 Y106.44 E33.06425
G1 X116.1 Y107.303 E33.10702
G1 X116.33 Y107.577 E33.12313
G1 X117.04 Y108.213 E33.16605
G1 X117.368 Y108.37 E33.18242
G1 X118.307 Y108.675 E33.22688
G1 X118.672 Y108.687 E33.24332
G1 X119.616 Y108.587 E33.28606
G1 X119.952 Y108.453 E33.30235
G1 X120.811 Y107.947 E33.34724
G1 X121.066 Y107.701 E33.36319
G1 X121.589 Y106.965 E33.40385
G1 X121.735 Y106.66 E33.41907
G1 X121.921 Y105.772 E33.45992
G1 X121.965 Y105.465 E33.47389
G1 X121.761 Y104.504 E33.51812
G1 X121.64 Y104.099 E33.53715
G1 X121.096 Y103.344 E33.57905
G1 X120.84 Y103.069 E33.59597
G1 X120.023 Y102.575 E33.63896
G1 X119.665 Y102.434 E33.65628
G1 X118.604 Y102.306 E33.7044
G1 X118.221 Y102.354 E33.72178
G1 X117.255 Y102.663 E33.76745
G1 X116.951 Y102.868 E33.78396
G1 X116.235 Y103.516 E33.82744
G1 X116.207 Y103.561 E33.82982
G0 F7500 X116.543 Y103.776
G1 F1800 X116.389 Y104.018 E33.84274
G1 X116.032 Y104.821 E33.88231
G1 X115.992 Y105.096 E33.89482
G1 X115.997 Y106.027 E33.93674
G1 X116.078 Y106.298 E33.94947
G1 X116.441 Y107.087 E33.98858
G1 X116.618 Y107.298 E34.00098
G1 X117.264 Y107.877 E34.04004
G1 X117.517 Y107.998 E34.05267
G1 X118.377 Y108.277 E34.09338
G1 X118.657 Y108.286 E34.10599
G1 X119.519 Y108.195 E34.14502
G1 X119.776 Y108.093 E34.15747
G1 X120.567 Y107.627 E34.1988
G1 X120.761 Y107.439 E34.21097
G1 X121.243 Y106.761 E34.24842
G1 X121.353 Y106.531 E34.2599
G1 X121.527 Y105.703 E34.298
G1 X121.559 Y105.479 E34.30819
G1 X121.373 Y104.603 E34.34851
G1 X121.276 Y104.278 E34.36378
G1 X120.786 Y103.598 E34.40152
G1 X120.585 Y103.382 E34.4148
G1 X119.845 Y102.935 E34.45373
G1 X119.566 Y102.825 E34.46723
G1 X118.605 Y102.709 E34.51082
G1 X118.307 Y102.746 E34.52434
G1 X117.431 Y103.027 E34.56576
G1 X117.198 Y103.184 E34.57841
G1 X116.543 Y103.776 E34.61816
G0 F7500 X116.851 Y104.037
;TYPE:WALL-OUTER
G1 F1800 X116.742 Y104.208 E34.62684
G1 X116.42 Y104.933 E34.66077
G1 X116.392 Y105.124 E34.66903
G1 X116.397 Y105.968 E34.70513
G1 X116.453 Y106.157 E34.71356
G1 X116.782 Y106.871 E34.74719
G1 X116.906 Y107.019 E34.75545
G1 X117.488 Y107.541 E34.78889
G1 X117.666 Y107.626 E34.79733
G1 X118.446 Y107.879 E34.8324
G1 X118.642 Y107.885 E34.84079
G1 X119.423 Y107.803 E34.87438
G1 X119.6 Y107.733 E34.88252
G1 X120.323 Y107.306 E34.91844
G1 X120.457 Y107.177 E34.92639
G1 X120.897 Y106.558 E34.95888
G1 X120.971 Y106.402 E34.96627
G1 X121.133 Y105.634 E34.99984
G1 X121.153 Y105.493 E35.00593
G1 X120.985 Y104.702 E35.04052
G1 X120.912 Y104.457 E35.05146
G1 X120.476 Y103.852 E35.08335
G1 X120.33 Y103.695 E35.09252
G1 X119.667 Y103.295 E35.12565
G1 X119.467 Y103.216 E35.13484
G1 X118.605 Y103.112 E35.17198
G1 X118.393 Y103.138 E35.18112
G1 X117.608 Y103.39 E35.21638
G1 X117.445 Y103.5 E35.2248
G1 X116.851 Y104.037 E35.25905
G0 F7500 X116.742 Y104.208
G0 X116.662 Y104.389
G0 X116.26 Y104.21
G1 F2700 E29.25905
G0 F7500 X116.088 Y103.391
G0 X117.517 Y104.599
G0 X116.088 Y91.835
G0 X116.088 Y93.71
G0 X103.5 Y93.5
;TYPE:WALL-INNER
G1 F2700 E35.25905
G1 F1800 X131.5 Y93.5 E36.51977
G1 X131.5 Y141.5 E38.68102
G1 X103.5 Y141.5 E39.94174
G1 X103.5 Y93.5 E42.10299
G0 F7500 X103.1 Y93.1
G1 F1800 X131.9 Y93.1 E43.39973
G1 X131.9 Y141.9 E45.597
G1 X103.1 Y141.9 E46.89374
G1 X103.1 Y93.1 E49.09101
G0 F7500 X102.7 Y92.7
;TYPE:WALL-OUTER
G1 F1800 X132.3 Y92.7 E50.35714
G1 X132.3 Y142.3 E52.47876
G1 X102.7 Y142.3 E53.74488
G1 X102.7 Y92.7 E55.86651
G0 F7500 X103.1 Y92.7
G0 X103.14 Y93.14
G0 X103.89 Y93.61
G0 X103.89 Y93.89
;TYPE:SKIN
G1 F1800 X131.11 Y93.89 E57.09211
G1 X131.11 Y141.11 E59.21823
G1 X103.89 Y141.11 E60.44384
G1 X103.89 Y93.89 E62.56996
G1 F2700 E56.56996
G0 F7500 X103.89 Y93.61
G0 X116.149 Y93.71
G0 X116.149 Y91.835
G0 X117.99 Y104.174
G0 X116.833 Y102.717
G0 X116.149 Y103.445
G0 X115.935 Y103.262
G1 F2700 E62.56996
G1 F1800 X115.691 Y103.643 E62.59033
G1 X115.266 Y104.6 E62.63748
G1 X115.202 Y105.041 E62.65755
G1 X115.207 Y106.145 E62.70726
G1 X115.337 Y106.578 E62.72761
G1 X115.768 Y107.514 E62.77401
